; LightBurn Pro 2.0.02
; Marlin device profile, current position
; Bounds: X-41.57 Y-44.39 to X41.57 Y44.39

;USER START SCRIPT
M107;				
;USER START SCRIPT

G21
G91
; Cut @ 300 mm/min, 100% power
M8
M106 S0 
G0 X0.629 Y38.69 F0
; Layer 
M106 S255
G1  Y2.685F300
G1 X0.81
G1 X0.188 Y-0.007
G1 X0.138 Y-0.019
G1 X0.146 Y-0.048
G1 X0.12 Y-0.077
G1 X0.096 Y-0.111
G1 X0.076 Y-0.149
G1 X0.049 Y-0.174
G1 X0.016 Y-0.192
G1 X-0.011 Y-0.164
G1 X-0.033 Y-0.152
G1 X-0.054 Y-0.138
G1 X-0.076 Y-0.125
G1 X-0.105 Y-0.104
G1 X-0.14 Y-0.074
G1 X-0.175 Y-0.045
G1 X-0.21 Y-0.014
G1 X-0.551
G1  Y-1.092
G1 X-0.284
M106 S0 
G0 X0.284 Y1.408 F0
M106 S255
G1 X0.555F300
G1 X0.128 Y0.008
G1 X0.107 Y0.024
G1 X0.088 Y0.04
G1 X0.068 Y0.057
G1 X0.087 Y0.154
G1 X0.029 Y0.206
G1 X-0.017 Y0.157
G1 X-0.051 Y0.132
G1 X-0.079 Y0.099
G1 X-0.101 Y0.059
G1 X-0.102 Y0.018
G1 X-0.163 Y0.006
G1 X-0.549
G1  Y-0.96
M106 S0 
G0 X2.698 Y-1.168 F0
M106 S255
G1 X-0.144 Y-0.133F300
G1 X-0.138 Y-0.087
G1 X-0.14 Y-0.048
G1 X-0.151 Y-0.016
G1 X-0.12 Y0.01
G1 X-0.106 Y0.03
G1 X-0.091 Y0.048
G1 X-0.077 Y0.069
G1 X-0.06 Y0.084
G1 X-0.043 Y0.094
G1 X-0.026 Y0.106
G1 X-0.008 Y0.116
G1 X0.013 Y0.137
G1 X0.039 Y0.124
G1 X0.06 Y0.106
G1 X0.076 Y0.083
G1 X0.089 Y0.063
G1 X0.101 Y0.045
G1 X0.097 Y0.026
G1 X0.137 Y0.024
G1 X0.277 Y0.052
G1 X0.193 Y0.061
G1  Y0.086
G1 X-0.017 Y0.172
G1 X-0.056 Y0.112
G1 X-0.126 Y0.084
G1 X-0.174 Y0.028
G1 X-0.162 Y-0.02
G1 X-0.113 Y-0.061
G1 X-0.077 Y-0.113
G1 X-0.054 Y-0.176
G1 X-0.258 Y0.044
G1 X0.047 Y0.187
G1 X0.069 Y0.147
G1 X0.098 Y0.113
G1 X0.135 Y0.083
G1 X0.164 Y0.052
G1 X0.189 Y0.017
G1 X0.18 Y-0.015
G1 X0.143 Y-0.044
G1 X0.108 Y-0.066
G1 X0.075 Y-0.081
G1 X0.05 Y-0.101
G1 X0.033 Y-0.123
G1 X0.009 Y-0.119
G1  Y-0.185
G1  Y-0.649
G1 X0.008 Y-0.166
G1 X0.005 Y-0.124
G1 X0.008 Y-0.082
G1 X0.025 Y-0.119
G1 X0.041 Y-0.115
G1 X-0.275
G1 X-0.034 Y0.112
G1 X-0.019 Y0.128
M106 S0 
G0 X-0.022 Y0.736 F0
M106 S255
G1 X-0.179 Y-0.067F300
G1 X-0.39 Y-0.088
G1 X-0.092 Y-0.035
G1 X-0.059 Y-0.045
G1 X-0.045 Y-0.062
G1 X-0.027 Y-0.075
G1 X-0.009 Y-0.082
G1 X0.02 Y-0.121
G1 X0.06 Y-0.099
G1 X0.098 Y-0.065
G1 X0.135 Y-0.022
G1 X0.144 Y0.02
G1 X0.127 Y0.063
G1 X0.103 Y0.099
G1 X0.072 Y0.129
G1 X0.031 Y0.138
G1 X0.011 Y0.191
G1  Y0.121
M106 S0 
G0 X0.57 Y-0.395 F0
M106 S255
G1 X0.261 Y0.051F300
G1 X0.041 Y-0.173
G1 X0.081 Y-0.127
G1 X0.12 Y-0.079
G1 X0.161 Y-0.026
G1 X0.158 Y0.023
G1 X0.111 Y0.07
G1 X0.066 Y0.1
G1 X0.022 Y0.117
G1 X-0.019 Y0.1
G1 X-0.059 Y0.076
G1 X-0.094 Y0.049
G1 X-0.421 Y0.148
G1 X-0.156 Y0.073
G1 X-0.099 Y0.079
G1 X-0.071 Y0.106
G1 X-0.044 Y0.124
G1 X-0.014 Y0.137
G1 X0.012 Y0.125
G1 X0.035 Y0.115
G1 X0.057 Y0.102
G1 X0.073 Y0.082
G1 X0.073 Y0.053
G1 X0.095 Y0.043
G1 X0.11 Y0.03
G1 X0.118 Y0.01
G1 X0.172 Y-0.017
G1 X0.149 Y-0.049
G1 X0.12 Y-0.078
G1 X0.085 Y-0.101
G1 X0.055 Y-0.131
G1 X0.035 Y-0.17
G1 X-0.257 Y-0.044
G1 X-0.035 Y0.134
G1 X-0.067 Y0.101
G1 X-0.102 Y0.063
G1 X-0.136 Y0.021
G1 X-0.156 Y-0.019
G1 X-0.104 Y-0.056
G1 X-0.058 Y-0.082
G1 X-0.019 Y-0.094
G1 X0.008 Y-0.061
G1 X0.024 Y-0.054
G1 X0.041 Y-0.049
G1 X0.06 Y-0.039
G1 X0.078 Y-0.03
G1 X0.392 Y-0.139
G1 X0.153 Y-0.068
G1 X0.099 Y-0.073
G1 X0.075 Y-0.1
G1 X0.047 Y-0.128
G1 X0.016 Y-0.154
G1 X-0.019 Y-0.16
G1 X-0.058 Y-0.151
G1 X-0.094 Y-0.129
G1 X-0.128 Y-0.096
G1 X-0.154 Y-0.06
G1 X-0.174 Y-0.02
G1 X-0.143 Y0.01
G1 X-0.124 Y0.03
G1 X-0.107 Y0.049
G1 X-0.088 Y0.069
G1 X-0.072 Y0.088
G1 X-0.058 Y0.107
G1 X-0.044 Y0.127
G1 X-0.029 Y0.145
M106 S0 
G0 X1.5 Y-0 F0
M106 S255
G1 X0.261 Y0.051F300
G1 X0.041 Y-0.173
G1 X0.081 Y-0.127
G1 X0.12 Y-0.079
G1 X0.161 Y-0.026
G1 X0.158 Y0.023
G1 X0.111 Y0.07
G1 X0.066 Y0.1
G1 X0.022 Y0.117
G1 X-0.019 Y0.1
G1 X-0.059 Y0.076
G1 X-0.094 Y0.049
G1 X-0.421 Y0.148
G1 X-0.156 Y0.073
G1 X-0.099 Y0.079
G1 X-0.071 Y0.106
G1 X-0.044 Y0.124
G1 X-0.014 Y0.137
G1 X0.012 Y0.125
G1 X0.035 Y0.115
G1 X0.057 Y0.102
G1 X0.073 Y0.082
G1 X0.073 Y0.053
G1 X0.095 Y0.043
G1 X0.11 Y0.03
G1 X0.118 Y0.01
G1 X0.172 Y-0.017
G1 X0.149 Y-0.049
G1 X0.12 Y-0.078
G1 X0.085 Y-0.101
G1 X0.055 Y-0.131
G1 X0.035 Y-0.17
G1 X-0.257 Y-0.044
G1 X-0.035 Y0.134
G1 X-0.067 Y0.101
G1 X-0.102 Y0.063
G1 X-0.136 Y0.021
G1 X-0.156 Y-0.019
G1 X-0.104 Y-0.056
G1 X-0.058 Y-0.082
G1 X-0.019 Y-0.094
G1 X0.008 Y-0.061
G1 X0.024 Y-0.054
G1 X0.041 Y-0.049
G1 X0.06 Y-0.039
G1 X0.078 Y-0.03
G1 X0.392 Y-0.139
G1 X0.153 Y-0.068
G1 X0.099 Y-0.073
G1 X0.075 Y-0.1
G1 X0.047 Y-0.128
G1 X0.016 Y-0.154
G1 X-0.019 Y-0.16
G1 X-0.058 Y-0.151
G1 X-0.094 Y-0.129
G1 X-0.128 Y-0.096
G1 X-0.154 Y-0.06
G1 X-0.174 Y-0.02
G1 X-0.143 Y0.01
G1 X-0.124 Y0.03
G1 X-0.107 Y0.049
G1 X-0.088 Y0.069
G1 X-0.072 Y0.088
G1 X-0.058 Y0.107
G1 X-0.044 Y0.127
G1 X-0.029 Y0.145
M106 S0 
G0 X2.67 Y0.046 F0
M106 S255
G1 X0.273 Y-0.043F300
G1 X-0.039 Y-0.14
G1 X-0.053 Y-0.125
G1 X-0.067 Y-0.107
G1 X-0.08 Y-0.091
G1 X-0.093 Y-0.072
G1 X-0.105 Y-0.051
G1 X-0.118 Y-0.031
G1 X-0.129 Y-0.011
G1 X-0.162 Y0.017
G1 X-0.144 Y0.049
G1 X-0.127 Y0.082
G1 X-0.109 Y0.115
G1 X-0.087 Y0.145
G1 X-0.062 Y0.171
G1 X-0.038 Y0.197
G1 X-0.012 Y0.224
G1 X0.012 Y0.232
G1 X0.038 Y0.204
G1 X0.063 Y0.177
G1 X0.089 Y0.149
G1 X0.108 Y0.118
G1 X0.124 Y0.085
G1 X0.138 Y0.051
G1 X0.154 Y0.017
G1 X0.149 Y-0.017
G1 X0.135 Y-0.05
G1 X0.12 Y-0.083
G1 X0.106 Y-0.116
G1 X0.086 Y-0.146
G1 X0.062 Y-0.173
G1 X0.037 Y-0.2
G1 X0.013 Y-0.228
G1  Y-0.088
G1 X-1.162
G1 X0.015 Y-0.15
G1 X0.029 Y-0.133
G1 X0.043 Y-0.113
G1 X0.058 Y-0.094
G1 X0.069 Y-0.075
G1 X0.077 Y-0.053
G1 X0.086 Y-0.032
G1 X0.093 Y-0.011
G1 X0.135 Y0.024
G1 X0.113 Y0.072
G1 X0.092 Y0.123
G1 X0.07 Y0.181
M106 S0 
G0 X-0.865 Y0.532 F0
M106 S255
G1 X0.868F300
G1 X-0.033 Y0.215
G1 X-0.066 Y0.153
G1 X-0.068 Y0.084
G1 X-0.077 Y0.059
G1 X-0.086 Y0.036
G1 X-0.096 Y0.012
G1 X-0.087 Y-0.01
G1 X-0.08 Y-0.028
G1 X-0.073 Y-0.048
G1 X-0.065 Y-0.066
G1 X-0.097 Y-0.178
G1 X-0.04 Y-0.229
M106 S0 
G0 X1.363 Y-0.578 F0
M106 S255
G1 X0.261 Y0.051F300
G1 X0.042 Y-0.173
G1 X0.08 Y-0.127
G1 X0.121 Y-0.079
G1 X0.16 Y-0.026
G1 X0.158 Y0.023
G1 X0.111 Y0.07
G1 X0.066 Y0.1
G1 X0.022 Y0.117
G1 X-0.019 Y0.1
G1 X-0.058 Y0.076
G1 X-0.095 Y0.049
G1 X-0.42 Y0.148
G1 X-0.157 Y0.073
G1 X-0.098 Y0.079
G1 X-0.072 Y0.106
G1 X-0.043 Y0.124
G1 X-0.015 Y0.137
G1 X0.012 Y0.125
G1 X0.036 Y0.115
G1 X0.056 Y0.102
G1 X0.074 Y0.082
G1 X0.072 Y0.053
G1 X0.095 Y0.043
G1 X0.11 Y0.03
G1 X0.118 Y0.01
G1 X0.172 Y-0.017
G1 X0.15 Y-0.049
G1 X0.12 Y-0.078
G1 X0.084 Y-0.101
G1 X0.056 Y-0.131
G1 X0.035 Y-0.17
G1 X-0.258 Y-0.044
G1 X-0.034 Y0.134
G1 X-0.068 Y0.101
G1 X-0.101 Y0.063
G1 X-0.137 Y0.021
G1 X-0.156 Y-0.019
G1 X-0.103 Y-0.056
G1 X-0.058 Y-0.082
G1 X-0.02 Y-0.094
G1 X0.008 Y-0.061
G1 X0.024 Y-0.054
G1 X0.042 Y-0.049
G1 X0.06 Y-0.039
G1 X0.078 Y-0.03
G1 X0.392 Y-0.139
G1 X0.153 Y-0.068
G1 X0.099 Y-0.073
G1 X0.074 Y-0.1
G1 X0.048 Y-0.128
G1 X0.015 Y-0.154
G1 X-0.019 Y-0.16
G1 X-0.058 Y-0.151
G1 X-0.093 Y-0.129
G1 X-0.128 Y-0.096
G1 X-0.155 Y-0.06
G1 X-0.174 Y-0.02
G1 X-0.142 Y0.01
G1 X-0.125 Y0.03
G1 X-0.106 Y0.049
G1 X-0.089 Y0.069
G1 X-0.072 Y0.088
G1 X-0.058 Y0.107
G1 X-0.043 Y0.127
G1 X-0.03 Y0.145
M106 S0 
G0 X1.679 Y0.989 F0
M106 S255
G1  Y0.375F300
G1 X0.3
G1  Y-0.375
G1 X-0.3
M106 S0 
G0 X0 Y-1.57 F0
M106 S255
G1  Y0.376F300
G1 X0.3
G1  Y-0.376
G1 X-0.3
M106 S0 
G0 X2.514 Y0 F0
M106 S255
G1 X-0.264F300
G1  Y2.101
G1 X-0.11 Y-0.114
G1 X-0.14 Y-0.114
G1 X-0.146 Y-0.099
G1 X-0.131 Y-0.071
G1  Y0.319
G1 X0.207 Y0.144
G1 X0.179 Y0.171
G1 X0.142 Y0.182
G1 X0.093 Y0.177
G1 X0.17
G1  Y-2.696
M106 S0 
G0 X-49.727 Y-46.246 F0
M106 S255
G1 X-0.029 Y0.335F300
G1 X0.183 Y0.04
G1 X0.148 Y0.071
G1 X0.116 Y0.111
G1 X0.092 Y0.159
G1 X0.06 Y0.195
G1 X0.02 Y0.217
G1 X-0.015 Y0.191
G1 X-0.045 Y0.168
G1 X-0.072 Y0.136
G1 X-0.094 Y0.096
G1 X-0.11 Y0.057
G1 X-0.12 Y0.019
G1 X-0.118 Y-0.019
G1 X-0.103 Y-0.055
G1 X-0.086 Y-0.097
G1 X-0.072 Y-0.144
G1 X-0.024 Y-0.071
G1 X-0.03 Y-0.103
G1 X-0.035 Y-0.136
G1 X-0.086 Y-0.339
G1 X-0.042 Y-0.144
G1 X-0.041 Y-0.115
G1 X-0.04 Y-0.088
G1 X-0.113 Y-0.168
G1 X-0.137 Y-0.119
G1 X-0.158 Y-0.071
G1 X-0.176 Y-0.023
G1 X-0.197 Y0.029
G1 X-0.183 Y0.086
G1 X-0.156 Y0.142
G1 X-0.113 Y0.195
G1 X-0.068 Y0.234
G1 X-0.023 Y0.259
G1 X0.024 Y0.28
G1 X0.072 Y0.246
G1 X0.119 Y0.202
G1 X0.164 Y0.149
G1 X0.199 Y0.094
G1 X0.224 Y0.037
G1 X0.025 Y-0.34
G1 X-0.119 Y-0.022
G1 X-0.104 Y-0.038
G1 X-0.088 Y-0.055
G1 X-0.073 Y-0.071
G1 X-0.057 Y-0.089
G1 X-0.041 Y-0.107
G1 X-0.024 Y-0.126
G1 X-0.008 Y-0.146
G1 X0.007 Y-0.15
G1 X0.022 Y-0.128
G1 X0.037 Y-0.107
G1 X0.052 Y-0.084
G1 X0.062 Y-0.065
G1 X0.068 Y-0.046
G1 X0.074 Y-0.028
G1 X0.081 Y-0.009
G1 X0.132 Y0.026
G1 X0.106 Y0.079
G1 X0.047 Y0.071
G1 X0.047 Y0.114
G1 X0.048 Y0.154
G1 X0.049 Y0.196
G1 X0.048 Y0.2
G1 X0.044 Y0.165
G1 X0.041 Y0.132
G1 X0.038 Y0.097
G1 X0.123 Y0.204
G1 X0.151 Y0.142
G1 X0.178 Y0.084
G1 X0.204 Y0.028
G1 X0.208 Y-0.031
G1 X0.196 Y-0.092
G1 X0.168 Y-0.149
G1 X0.126 Y-0.203
G1 X0.079 Y-0.244
G1 X0.027 Y-0.273
G1 X-0.027 Y-0.335
G1 X-0.08 Y-0.276
G1 X-0.059 Y-0.117
G1 X-0.074 Y-0.103
G1 X-0.086 Y-0.09
G1 X-0.1 Y-0.076
G1 X-0.227 Y-0.107
G1 X-0.256 Y-0.041
M106 S0 
G0 X1.608 Y2.58 F0
M106 S255
G1 X-2.69F300
G1  Y0.3
G1 X0.253
G1 X-0.13 Y0.114
G1 X-0.092 Y0.126
G1 X-0.056 Y0.148
G1 X-0.019 Y0.176
G1 X0.032 Y0.235
G1 X0.097 Y0.205
G1 X0.154 Y0.167
G1 X0.207 Y0.12
G1 X0.245 Y0.073
G1 X0.267 Y0.024
G1 X0.284 Y-0.026
G1 X0.253 Y-0.081
G1 X0.211 Y-0.131
G1 X0.156 Y-0.18
G1 X0.095 Y-0.209
G1 X0.032 Y-0.22
G1 X-0.018 Y-0.157
G1 X-0.052 Y-0.139
G1 X-0.078 Y-0.119
G1 X-0.098 Y-0.096
G1 X0.947
G1  Y-0.33
M106 S0 
G0 X-1.706 Y0.299 F0
M106 S255
G1 X0.175 Y0.009F300
G1 X0.151 Y0.029
G1 X0.126 Y0.047
G1 X0.102 Y0.067
G1 X0.079 Y0.08
G1 X0.056 Y0.088
G1 X0.034 Y0.096
G1 X0.011 Y0.104
G1 X-0.012 Y0.106
G1 X-0.035 Y0.098
G1 X-0.058 Y0.09
G1 X-0.081 Y0.082
G1 X-0.106 Y0.068
G1 X-0.131 Y0.049
G1 X-0.157 Y0.03
G1 X-0.182 Y0.009
G1 X-0.174 Y-0.009
G1 X-0.151 Y-0.029
G1 X-0.127 Y-0.048
G1 X-0.105 Y-0.066
G1 X-0.08 Y-0.081
G1 X-0.058 Y-0.087
G1 X-0.035 Y-0.095
G1 X-0.011 Y-0.103
G1 X0.012 Y-0.102
G1 X0.037 Y-0.096
G1 X0.061 Y-0.09
G1 X0.086 Y-0.084
G1 X0.11 Y-0.071
G1 X0.132 Y-0.051
G1 X0.154 Y-0.03
G1 X0.177 Y-0.01
M106 S0 
G0 X0.335 Y3.118 F0
M106 S255
G1 X0.042 Y0.34F300
G1 X0.141 Y-0.048
G1 X0.124 Y-0.066
G1 X0.107 Y-0.084
G1 X0.091 Y-0.1
G1 X0.072 Y-0.116
G1 X0.052 Y-0.132
G1 X0.031 Y-0.147
G1 X0.01 Y-0.162
G1 X-0.017 Y-0.202
G1 X-0.049 Y-0.18
G1 X-0.082 Y-0.158
G1 X-0.115 Y-0.136
G1 X-0.145 Y-0.11
G1 X-0.171 Y-0.078
G1 X-0.197 Y-0.047
G1 X-0.224 Y-0.015
G1 X-0.232 Y0.016
G1 X-0.204 Y0.047
G1 X-0.176 Y0.079
G1 X-0.15 Y0.111
G1 X-0.118 Y0.135
G1 X-0.085 Y0.155
G1 X-0.051 Y0.173
G1 X-0.017 Y0.192
G1 X0.017 Y0.186
G1 X0.05 Y0.168
G1 X0.083 Y0.151
G1 X0.116 Y0.132
G1 X0.146 Y0.108
G1 X0.173 Y0.078
G1 X0.201 Y0.046
G1 X0.227 Y0.015
G1 X0.088
G1  Y-1.452
G1 X0.151 Y0.019
G1 X0.132 Y0.036
G1 X0.113 Y0.054
G1 X0.095 Y0.073
G1 X0.074 Y0.086
G1 X0.053 Y0.097
G1 X0.032 Y0.106
G1 X0.011 Y0.117
G1 X-0.024 Y0.168
G1 X-0.071 Y0.142
G1 X-0.124 Y0.115
G1 X-0.18 Y0.088
M106 S0 
G0 X-0.533 Y-1.082 F0
M106 S255
G1  Y1.086F300
G1 X-0.215 Y-0.043
G1 X-0.153 Y-0.082
G1 X-0.084 Y-0.085
G1 X-0.059 Y-0.096
G1 X-0.036 Y-0.108
G1 X-0.012 Y-0.119
G1 X0.01 Y-0.109
G1 X0.028 Y-0.1
G1 X0.048 Y-0.091
G1 X0.066 Y-0.082
G1 X0.083 Y-0.069
G1 X0.095 Y-0.051
G1 X0.108 Y-0.034
G1 X0.121 Y-0.017
M106 S0 
G0 X0.533 Y3.167 F0
M106 S255
G1 X0.042 Y0.341F300
G1 X0.141 Y-0.049
G1 X0.124 Y-0.066
G1 X0.107 Y-0.083
G1 X0.091 Y-0.1
G1 X0.072 Y-0.117
G1 X0.052 Y-0.132
G1 X0.031 Y-0.146
G1 X0.01 Y-0.162
G1 X-0.017 Y-0.202
G1 X-0.049 Y-0.18
G1 X-0.082 Y-0.159
G1 X-0.115 Y-0.136
G1 X-0.145 Y-0.109
G1 X-0.171 Y-0.078
G1 X-0.197 Y-0.047
G1 X-0.224 Y-0.016
G1 X-0.232 Y0.016
G1 X-0.204 Y0.048
G1 X-0.176 Y0.079
G1 X-0.15 Y0.11
G1 X-0.118 Y0.136
G1 X-0.085 Y0.154
G1 X-0.051 Y0.174
G1 X-0.017 Y0.192
G1 X0.017 Y0.186
G1 X0.05 Y0.168
G1 X0.083 Y0.15
G1 X0.116 Y0.133
G1 X0.146 Y0.108
G1 X0.173 Y0.077
G1 X0.201 Y0.047
G1 X0.227 Y0.015
G1 X0.088
G1  Y-1.452
G1 X0.151 Y0.018
G1 X0.132 Y0.036
G1 X0.113 Y0.055
G1 X0.095 Y0.072
G1 X0.074 Y0.087
G1 X0.053 Y0.096
G1 X0.032 Y0.107
G1 X0.011 Y0.117
G1 X-0.024 Y0.168
G1 X-0.071 Y0.141
G1 X-0.124 Y0.115
G1 X-0.18 Y0.088
M106 S0 
G0 X-0.533 Y-1.082 F0
M106 S255
G1  Y1.086F300
G1 X-0.215 Y-0.042
G1 X-0.153 Y-0.082
G1 X-0.084 Y-0.085
G1 X-0.059 Y-0.096
G1 X-0.036 Y-0.108
G1 X-0.012 Y-0.12
G1 X0.01 Y-0.109
G1 X0.028 Y-0.1
G1 X0.048 Y-0.091
G1 X0.066 Y-0.081
G1 X0.083 Y-0.069
G1 X0.095 Y-0.052
G1 X0.108 Y-0.034
G1 X0.121 Y-0.017
M106 S0 
G0 X1.159 Y3.098 F0
M106 S255
G1 X-0.245F300
G1 X0.126 Y-0.103
G1 X0.091 Y-0.125
G1 X0.054 Y-0.147
G1 X0.018 Y-0.168
G1 X-0.032 Y-0.224
G1 X-0.096 Y-0.204
G1 X-0.154 Y-0.173
G1 X-0.204 Y-0.129
G1 X-0.247 Y-0.08
G1 X-0.282 Y-0.027
G1 X-0.277 Y0.024
G1 X-0.251 Y0.073
G1 X-0.209 Y0.121
G1 X-0.154 Y0.17
G1 X-0.095 Y0.206
G1 X-0.032 Y0.228
G1 X0.019 Y0.166
G1 X0.056 Y0.147
G1 X0.085 Y0.125
G1 X0.108 Y0.099
G1 X-0.963
G1  Y0.327
G1 X2.684
G1  Y-0.306
M106 S0 
G0 X-0.971 Y-1.041 F0
M106 S255
G1 X0.175 Y0.009F300
G1 X0.152 Y0.03
G1 X0.128 Y0.049
G1 X0.104 Y0.069
G1 X0.081 Y0.082
G1 X0.058 Y0.09
G1 X0.034 Y0.096
G1 X0.012 Y0.104
G1 X-0.011 Y0.104
G1 X-0.033 Y0.096
G1 X-0.056 Y0.087
G1 X-0.077 Y0.08
G1 X-0.1 Y0.066
G1 X-0.123 Y0.047
G1 X-0.146 Y0.029
G1 X-0.17 Y0.009
G1 X-0.186 Y-0.01
G1 X-0.16 Y-0.028
G1 X-0.133 Y-0.049
G1 X-0.107 Y-0.067
G1 X-0.082 Y-0.081
G1 X-0.058 Y-0.09
G1 X-0.035 Y-0.1
G1 X-0.012 Y-0.108
G1 X0.011 Y-0.105
G1 X0.034 Y-0.097
G1 X0.056 Y-0.087
G1 X0.079 Y-0.078
G1 X0.102 Y-0.064
G1 X0.129 Y-0.047
G1 X0.154 Y-0.027
G1 X0.18 Y-0.009
M106 S0 
G0 X1.76 Y3.537 F0
M106 S255
G1 X-0.373 Y-0.252F300
G1 X-0.433 Y-0.209
G1 X-0.232 Y-0.083
G1 X-0.237 Y-0.059
G1 X-0.241 Y-0.035
G1 X-0.245 Y-0.012
G1 X-0.427 Y0.035
G1 X-0.408 Y0.106
G1 X-0.232 Y0.094
G1 X-0.231 Y0.116
G1 X-0.23 Y0.138
G1 X-0.23 Y0.161
G1  Y0.236
G1 X0.177 Y-0.101
G1 X0.149 Y-0.083
G1 X0.123 Y-0.063
G1 X0.095 Y-0.046
G1 X0.258 Y-0.099
G1 X0.269 Y-0.076
G1 X0.343 Y-0.059
G1 X0.345 Y-0.02
G1 X0.441 Y0.034
G1 X0.44 Y0.103
G1 X0.44 Y0.171
G1 X0.439 Y0.239
G1  Y-0.236
M106 S0 
G0 X-0.789 Y0.619 F0
M106 S255
G1 X-1.945F300
G1  Y0.295
G1 X0.273
G1 X-0.129 Y0.107
G1 X-0.101 Y0.136
G1 X-0.065 Y0.163
G1 X-0.022 Y0.184
G1 X0.023 Y0.196
G1 X0.067 Y0.158
G1 X0.108 Y0.118
G1 X0.143 Y0.077
G1 X-0.149 Y0.124
G1 X-0.106 Y0.141
G1 X-0.064 Y0.159
G1 X-0.022 Y0.176
G1 X0.01 Y0.137
G1 X0.03 Y0.119
G1 X0.05 Y0.103
G1 X0.071 Y0.086
G1 X0.09 Y0.068
G1 X0.113 Y0.049
G1 X0.134 Y0.029
G1 X0.156 Y0.01
G1 X1.335
G1  Y-0.328
G1 X-1.225
G1 X-0.17 Y-0.008
G1 X-0.115 Y-0.024
G1 X-0.078 Y-0.045
G1 X-0.062 Y-0.071
G1 X-0.04 Y-0.092
G1 X-0.013 Y-0.106
G1 X0.009 Y-0.098
G1 X0.025 Y-0.09
G1 X0.043 Y-0.08
G1 X0.059 Y-0.072
G1 X0.079 Y-0.06
G1 X0.099 Y-0.042
G1 X0.119 Y-0.025
G1 X0.14 Y-0.009
G1 X1.13
G1  Y-0.329
G1 X-1.264
G1 X-0.192 Y-0.021
G1 X-0.137 Y-0.06
G1 X-0.083 Y-0.106
G1 X-0.027 Y-0.158
G1 X0.018 Y-0.134
G1 X0.055 Y-0.123
G1 X0.09 Y-0.102
G1 X0.124 Y-0.069
G1 X0.173 Y-0.04
G1 X0.234 Y-0.013
G1 X1.009
G1  Y-0.33
M106 S0 
G0 X-0 Y3.124 F0
M106 S255
G1 X-1.945F300
G1  Y0.295
G1 X0.273
G1 X-0.129 Y0.106
G1 X-0.101 Y0.137
G1 X-0.065 Y0.163
G1 X-0.022 Y0.183
G1 X0.023 Y0.197
G1 X0.067 Y0.158
G1 X0.108 Y0.117
G1 X0.143 Y0.078
G1 X-0.149 Y0.124
G1 X-0.106 Y0.141
G1 X-0.064 Y0.159
G1 X-0.022 Y0.176
G1 X0.01 Y0.136
G1 X0.03 Y0.12
G1 X0.05 Y0.103
G1 X0.071 Y0.086
G1 X0.091 Y0.068
G1 X0.112 Y0.049
G1 X0.134 Y0.029
G1 X0.156 Y0.01
G1 X1.335
G1  Y-0.328
G1 X-1.225
G1 X-0.17 Y-0.008
G1 X-0.115 Y-0.024
G1 X-0.078 Y-0.045
G1 X-0.062 Y-0.071
G1 X-0.04 Y-0.092
G1 X-0.013 Y-0.106
G1 X0.009 Y-0.098
G1 X0.025 Y-0.09
G1 X0.043 Y-0.081
G1 X0.059 Y-0.072
G1 X0.079 Y-0.059
G1 X0.099 Y-0.042
G1 X0.119 Y-0.026
G1 X0.14 Y-0.008
G1 X1.13
G1  Y-0.33
G1 X-1.264
G1 X-0.192 Y-0.02
G1 X-0.137 Y-0.06
G1 X-0.083 Y-0.106
G1 X-0.027 Y-0.158
G1 X0.018 Y-0.134
G1 X0.055 Y-0.123
G1 X0.09 Y-0.102
G1 X0.124 Y-0.069
G1 X0.173 Y-0.04
G1 X0.234 Y-0.014
G1 X1.009
G1  Y-0.329
M106 S0 
G0 X0.046 Y2.876 F0
M106 S255
G1 X-2.776 Y0.779F300
G1  Y0.263
G1 X2.776 Y-0.776
G1  Y-0.266
M106 S0 
G0 X-0.046 Y1.29 F0
M106 S255
G1 X-1.945F300
G1  Y0.294
G1 X0.273
G1 X-0.129 Y0.107
G1 X-0.101 Y0.137
G1 X-0.065 Y0.162
G1 X-0.022 Y0.184
G1 X0.023 Y0.197
G1 X0.067 Y0.157
G1 X0.108 Y0.118
G1 X0.143 Y0.077
G1 X-0.149 Y0.124
G1 X-0.106 Y0.142
G1 X-0.064 Y0.159
G1 X-0.022 Y0.176
G1 X0.01 Y0.136
G1 X0.03 Y0.12
G1 X0.05 Y0.103
G1 X0.071 Y0.086
G1 X0.091 Y0.068
G1 X0.112 Y0.049
G1 X0.134 Y0.029
G1 X0.156 Y0.009
G1 X1.335
G1  Y-0.327
G1 X-1.225
G1 X-0.17 Y-0.008
G1 X-0.115 Y-0.024
G1 X-0.078 Y-0.045
G1 X-0.062 Y-0.072
G1 X-0.04 Y-0.091
G1 X-0.013 Y-0.106
G1 X0.009 Y-0.099
G1 X0.025 Y-0.089
G1 X0.043 Y-0.081
G1 X0.059 Y-0.072
G1 X0.079 Y-0.059
G1 X0.099 Y-0.043
G1 X0.119 Y-0.025
G1 X0.14 Y-0.008
G1 X1.13
G1  Y-0.33
G1 X-1.264
G1 X-0.192 Y-0.02
G1 X-0.137 Y-0.061
G1 X-0.083 Y-0.106
G1 X-0.027 Y-0.157
G1 X0.018 Y-0.134
G1 X0.055 Y-0.124
G1 X0.09 Y-0.101
G1 X0.124 Y-0.07
G1 X0.173 Y-0.04
G1 X0.234 Y-0.013
G1 X1.009
G1  Y-0.329
M106 S0 
G0 X0.789 Y3.339 F0
M106 S255
G1  Y-0.236F300
G1 X-0.439 Y0.24
G1 X-0.44 Y0.171
G1 X-0.44 Y0.102
G1 X-0.441 Y0.035
G1 X-0.342 Y-0.02
G1 X-0.341 Y-0.059
G1 X-0.269 Y-0.075
G1 X-0.258 Y-0.099
G1 X-0.096 Y-0.045
G1 X-0.124 Y-0.064
G1 X-0.151 Y-0.084
G1 X-0.178 Y-0.102
G1  Y0.236
G1 X0.23 Y0.161
G1 X0.23 Y0.139
G1 X0.231 Y0.116
G1 X0.232 Y0.093
G1 X0.408 Y0.106
G1 X0.427 Y0.035
G1 X0.245 Y-0.011
G1 X0.241 Y-0.036
G1 X0.237 Y-0.059
G1 X0.232 Y-0.083
G1 X0.433 Y-0.21
G1 X0.373 Y-0.251
M106 S0 
G0 X33.34 Y-56.882 F0
M106 S255
G1  Y2.684F300
G1 X1.013
G1 X0.235 Y-0.007
G1 X0.173 Y-0.019
G1 X0.182 Y-0.048
G1 X0.149 Y-0.077
G1 X0.121 Y-0.111
G1 X0.095 Y-0.148
G1 X0.061 Y-0.175
G1 X0.02 Y-0.191
G1 X-0.014 Y-0.165
G1 X-0.04 Y-0.152
G1 X-0.069 Y-0.138
G1 X-0.095 Y-0.125
G1 X-0.131 Y-0.104
G1 X-0.175 Y-0.074
G1 X-0.218 Y-0.044
G1 X-0.263 Y-0.015
G1 X-0.689
G1  Y-1.091
G1 X-0.355
M106 S0 
G0 X0.355 Y1.408 F0
M106 S255
G1 X0.694F300
G1 X0.16 Y0.008
G1 X0.135 Y0.024
G1 X0.109 Y0.04
G1 X0.085 Y0.056
G1 X0.063 Y0.07
G1 X0.046 Y0.084
G1 X0.027 Y0.097
G1 X0.009 Y0.11
G1 X-0.021 Y0.156
G1 X-0.064 Y0.132
G1 X-0.099 Y0.099
G1 X-0.126 Y0.059
G1 X-0.127 Y0.018
G1 X-0.204 Y0.006
G1 X-0.687
G1  Y-0.959
M106 S0 
G0 X1.982 Y-0.436 F0
M106 S255
G1 X0.018 Y0.252F300
G1 X0.057 Y0.218
G1 X0.093 Y0.183
G1 X0.132 Y0.147
G1 X0.132 Y0.095
G1 X0.146 Y0.067
G1 X0.16 Y0.041
G1 X0.173 Y0.013
G1 X0.192 Y-0.016
G1 X0.173 Y-0.05
G1 X0.154 Y-0.082
G1 X0.137 Y-0.115
G1 X0.111 Y-0.144
G1 X0.08 Y-0.169
G1 X0.048 Y-0.194
G1 X0.015 Y-0.219
G1 X-0.028 Y-0.335
G1 X-0.084 Y-0.255
G1 X-0.138 Y-0.191
G1 X-0.19 Y-0.143
G1 X-0.225 Y-0.09
G1 X-0.245 Y-0.029
G1 X-0.194 Y0.016
G1 X-0.175 Y0.049
G1 X-0.155 Y0.082
G1 X-0.136 Y0.114
G1 X-0.11 Y0.146
G1 X-0.079 Y0.174
G1 X-0.047 Y0.203
G1 X-0.015 Y0.232
M106 S0 
G0 X0.338 Y-0 F0
M106 S255
G1 X0.01 Y-0.175F300
G1 X0.031 Y-0.152
G1 X0.051 Y-0.128
G1 X0.071 Y-0.105
G1 X0.087 Y-0.081
G1 X0.097 Y-0.058
G1 X0.108 Y-0.035
G1 X0.118 Y-0.011
G1 X0.118 Y0.011
G1 X0.107 Y0.035
G1 X0.097 Y0.059
G1 X0.087 Y0.081
G1 X0.071 Y0.106
G1 X0.051 Y0.13
G1 X0.03 Y0.155
G1 X0.011 Y0.179
G1 X-0.011 Y0.169
G1 X-0.03 Y0.148
G1 X-0.052 Y0.126
G1 X-0.071 Y0.103
G1 X-0.087 Y0.082
G1 X-0.097 Y0.058
G1 X-0.107 Y0.035
G1 X-0.117 Y0.011
G1 X-0.118 Y-0.011
G1 X-0.108 Y-0.035
G1 X-0.097 Y-0.058
G1 X-0.087 Y-0.081
G1 X-0.071 Y-0.104
G1 X-0.051 Y-0.128
G1 X-0.031 Y-0.151
G1 X-0.01 Y-0.175
M106 S0 
G0 X2.229 Y-0.972 F0
M106 S255
G1 X-0.595 Y1.944F300
G1 X0.34
G1 X0.425 Y-1.54
G1 X0.101 Y0.401
G1 X0.309 Y1.139
G1 X0.339
G1 X0.388 Y-1.499
G1 X0.445 Y1.499
G1 X0.32
G1 X-0.607 Y-1.944
G1 X-0.343
G1 X-0.309 Y1.164
G1 X-0.075 Y0.332
G1 X-0.394 Y-1.496
G1 X-0.344
M106 S0 
G0 X3.68 Y0.626 F0
M106 S255
G1 X0.341 Y-0.042F300
G1 X-0.049 Y-0.141
G1 X-0.066 Y-0.124
G1 X-0.083 Y-0.108
G1 X-0.101 Y-0.091
G1 X-0.116 Y-0.072
G1 X-0.132 Y-0.051
G1 X-0.147 Y-0.031
G1 X-0.161 Y-0.01
G1 X-0.203 Y0.016
G1 X-0.18 Y0.049
G1 X-0.158 Y0.082
G1 X-0.136 Y0.115
G1 X-0.109 Y0.145
G1 X-0.078 Y0.171
G1 X-0.047 Y0.197
G1 X-0.016 Y0.224
G1 X0.016 Y0.232
G1 X0.047 Y0.204
G1 X0.079 Y0.177
G1 X0.111 Y0.149
G1 X0.135 Y0.119
G1 X0.155 Y0.084
G1 X0.173 Y0.051
G1 X0.192 Y0.017
G1 X0.186 Y-0.017
G1 X0.169 Y-0.049
G1 X0.15 Y-0.083
G1 X0.132 Y-0.116
G1 X0.109 Y-0.147
G1 X0.077 Y-0.173
G1 X0.046 Y-0.2
G1 X0.016 Y-0.227
G1  Y-0.088
G1 X-1.452
G1 X0.018 Y-0.151
G1 X0.036 Y-0.132
G1 X0.054 Y-0.114
G1 X0.073 Y-0.094
G1 X0.086 Y-0.075
G1 X0.097 Y-0.053
G1 X0.107 Y-0.032
G1 X0.116 Y-0.01
G1 X0.168 Y0.023
G1 X0.142 Y0.072
G1 X0.115 Y0.123
G1 X0.088 Y0.181
M106 S0 
G0 X-1.082 Y0.533 F0
M106 S255
G1 X1.086F300
G1 X-0.042 Y0.214
G1 X-0.083 Y0.154
G1 X-0.084 Y0.083
G1 X-0.097 Y0.059
G1 X-0.108 Y0.036
G1 X-0.119 Y0.012
G1 X-0.109 Y-0.009
G1 X-0.1 Y-0.029
G1 X-0.091 Y-0.047
G1 X-0.082 Y-0.067
G1 X-0.069 Y-0.082
G1 X-0.051 Y-0.095
G1 X-0.034 Y-0.109
G1 X-0.017 Y-0.12
M106 S0 
G0 X1.833 Y-1.159 F0
M106 S255
G1  Y1.944F300
G1 X0.296
G1  Y-0.295
G1 X0.11 Y0.172
G1 X0.1 Y0.101
G1 X0.101 Y0.05
G1 X0.111 Y0.016
G1 X0.168 Y-0.026
G1 X0.17 Y-0.08
G1 X-0.113 Y-0.306
G1 X-0.121 Y0.054
G1 X-0.121 Y0.018
G1 X-0.102 Y-0.017
G1 X-0.092 Y-0.048
G1 X-0.074 Y-0.078
G1 X-0.049 Y-0.103
G1 X-0.041 Y-0.184
G1 X-0.014 Y-0.2
G1  Y-1.018
G1 X-0.329
M106 S0 
G0 X2.924 Y-0.79 F0
M106 S255
G1 X-0.252 Y0.374F300
G1 X-0.209 Y0.432
G1 X-0.083 Y0.233
G1 X-0.059 Y0.237
G1 X-0.035 Y0.241
G1 X-0.012 Y0.245
G1 X0.035 Y0.426
G1 X0.106 Y0.409
G1 X0.094 Y0.231
G1 X0.116 Y0.231
G1 X0.138 Y0.231
G1 X0.161 Y0.23
G1 X0.236
G1 X-0.101 Y-0.177
G1 X-0.083 Y-0.15
G1 X-0.064 Y-0.122
G1 X-0.045 Y-0.095
G1 X-0.1 Y-0.258
G1 X-0.076 Y-0.269
G1 X-0.059 Y-0.344
G1 X-0.019 Y-0.345
G1 X0.034 Y-0.44
G1 X0.103 Y-0.44
G1 X0.171 Y-0.44
G1 X0.239 Y-0.44
G1 X-0.236
M106 S0 
G0 X0.59 Y2.829 F0
M106 S255
G1 X0.009 Y0.139F300
G1 X0.027 Y0.127
G1 X0.045 Y0.117
G1 X0.063 Y0.106
G1 X0.081 Y0.088
G1 X0.096 Y0.063
G1 X0.113 Y0.038
G1 X0.13 Y0.013
G1 X0.12 Y-0.012
G1 X0.111 Y-0.033
G1 X0.099 Y-0.057
G1 X0.088 Y-0.079
G1 X0.072 Y-0.1
G1 X0.052 Y-0.122
G1 X0.031 Y-0.144
G1 X0.011 Y-0.164
G1 X-0.011 Y-0.16
G1 X-0.031 Y-0.141
G1 X-0.053 Y-0.122
G1 X-0.073 Y-0.101
G1 X-0.088 Y-0.081
G1 X-0.099 Y-0.057
G1 X-0.108 Y-0.035
G1 X-0.118 Y-0.011
G1 X-0.116 Y0.011
G1 X-0.107 Y0.034
G1 X-0.096 Y0.057
G1 X-0.086 Y0.079
G1 X-0.071 Y0.102
G1 X-0.051 Y0.125
G1 X-0.03 Y0.149
G1 X-0.01 Y0.171
M106 S0 
G0 X0.573 Y0.464 F0
M106 S255
G1 X-0.113 Y-0.027F300
G1 X-0.091 Y-0.08
G1 X-0.062 Y-0.15
G1 X-0.02 Y-0.24
G1 X0.021 Y-0.22
G1 X0.061 Y-0.143
G1 X0.092 Y-0.079
G1 X0.112 Y-0.026
G1 X0.113 Y0.026
G1 X0.093 Y0.08
G1 X0.061 Y0.15
G1 X0.02 Y0.238
G1 X-0.02 Y0.221
G1 X-0.062 Y0.144
G1 X-0.093 Y0.079
G1 X-0.112 Y0.027
M106 S0 
G0 X0.002 Y-2.602 F0
M106 S255
G1 X1.468 Y2.829F300
G1 X0.267
G1 X-1.463 Y-2.829
G1 X-0.272
M106 S0 
G0 X1.16 Y0.728 F0
M106 S255
G1 X0.009 Y0.14F300
G1 X0.028 Y0.128
G1 X0.045 Y0.116
G1 X0.063 Y0.106
G1 X0.081 Y0.088
G1 X0.097 Y0.063
G1 X0.113 Y0.037
G1 X0.13 Y0.013
G1 X0.121 Y-0.012
G1 X0.11 Y-0.033
G1 X0.099 Y-0.057
G1 X0.089 Y-0.079
G1 X0.072 Y-0.1
G1 X0.052 Y-0.122
G1 X0.031 Y-0.143
G1 X0.01 Y-0.165
G1 X-0.01 Y-0.16
G1 X-0.032 Y-0.141
G1 X-0.052 Y-0.121
G1 X-0.073 Y-0.102
G1 X-0.089 Y-0.081
G1 X-0.099 Y-0.057
G1 X-0.108 Y-0.035
G1 X-0.119 Y-0.011
G1 X-0.117 Y0.011
G1 X-0.106 Y0.034
G1 X-0.096 Y0.057
G1 X-0.087 Y0.08
G1 X-0.07 Y0.102
G1 X-0.051 Y0.126
G1 X-0.03 Y0.148
G1 X-0.011 Y0.17
M106 S0 
G0 X0.575 Y0.464 F0
M106 S255
G1 X-0.113 Y-0.027F300
G1 X-0.093 Y-0.079
G1 X-0.061 Y-0.151
G1 X-0.02 Y-0.24
G1 X0.021 Y-0.218
G1 X0.061 Y-0.144
G1 X0.092 Y-0.08
G1 X0.112 Y-0.026
G1 X0.115 Y0.026
G1 X0.092 Y0.08
G1 X0.062 Y0.15
G1 X0.02 Y0.238
G1 X-0.021 Y0.221
G1 X-0.062 Y0.144
G1 X-0.092 Y0.079
G1 X-0.113 Y0.027
M106 S0 
G0 X1.269 Y-1.883 F0
M106 S255
G1 X-0.236F300
G1 X0.24 Y0.44
G1 X0.171 Y0.44
G1 X0.102 Y0.44
G1 X0.035 Y0.44
G1 X-0.02 Y0.343
G1 X-0.059 Y0.34
G1 X-0.075 Y0.269
G1 X-0.099 Y0.258
G1 X-0.045 Y0.096
G1 X-0.064 Y0.124
G1 X-0.084 Y0.151
G1 X-0.102 Y0.179
G1 X0.236
G1 X0.161 Y-0.23
G1 X0.139 Y-0.231
G1 X0.116 Y-0.231
G1 X0.093 Y-0.231
G1 X0.106 Y-0.409
G1 X0.035 Y-0.426
G1 X-0.012 Y-0.245
G1 X-0.035 Y-0.241
G1 X-0.059 Y-0.237
G1 X-0.083 Y-0.233
G1 X-0.21 Y-0.432
G1 X-0.251 Y-0.374
M106 S0 
G0 X-48.309 Y73.232 F0
M106 S255
G1 X-0.247F300
G1  Y2.1
G1 X-0.103 Y-0.114
G1 X-0.131 Y-0.113
G1 X-0.138 Y-0.1
G1 X-0.122 Y-0.071
G1  Y0.319
G1 X0.194 Y0.144
G1 X0.168 Y0.171
G1 X0.133 Y0.182
G1 X0.087 Y0.177
G1 X0.159
G1  Y-2.695
M106 S0 
G0 X1.014 Y1.455 F0
M106 S255
G1 X-0.134 Y0.091F300
G1 X-0.094 Y0.124
G1 X-0.056 Y0.152
G1 X-0.018 Y0.181
G1 X0.01 Y0.14
G1 X0.029 Y0.129
G1 X0.05 Y0.118
G1 X0.069 Y0.105
G1 X0.085 Y0.088
G1 X0.099 Y0.062
G1 X0.111 Y0.037
G1 X0.125 Y0.013
G1 X0.125 Y-0.013
G1 X0.113 Y-0.038
G1 X0.099 Y-0.064
G1 X0.087 Y-0.089
G1 X0.07 Y-0.108
G1 X0.051 Y-0.119
G1 X0.03 Y-0.129
G1 X0.01 Y-0.141
G1 X-0.018 Y-0.175
G1 X-0.056 Y-0.15
G1 X-0.092 Y-0.123
G1 X-0.131 Y-0.091
G1 X0.163 Y-0.105
G1 X0.119 Y-0.155
G1 X0.073 Y-0.197
G1 X0.024 Y-0.231
G1 X-0.011 Y-0.165
G1 X-0.034 Y-0.152
G1 X-0.057 Y-0.138
G1 X-0.08 Y-0.124
G1 X-0.099 Y-0.102
G1 X-0.113 Y-0.074
G1 X-0.127 Y-0.044
G1 X-0.142 Y-0.014
G1 X-0.142 Y0.015
G1 X-0.127 Y0.044
G1 X-0.113 Y0.073
G1 X-0.099 Y0.103
G1 X-0.08 Y0.125
G1 X-0.057 Y0.139
G1 X-0.034 Y0.154
G1 X-0.011 Y0.169
G1 X0.025 Y0.241
G1 X0.074 Y0.197
G1 X0.121 Y0.149
G1 X0.163 Y0.092
M106 S0 
G0 X-0.05 Y0.559 F0
M106 S255
G1 X0.023 Y-0.173F300
G1 X0.069 Y-0.139
G1 X0.106 Y-0.09
G1 X0.133 Y-0.03
G1 X0.13 Y0.03
G1 X0.104 Y0.09
G1 X0.069 Y0.133
G1 X0.023 Y0.16
G1 X-0.024 Y0.167
G1 X-0.07 Y0.138
G1 X-0.106 Y0.093
G1 X-0.128 Y0.031
G1 X-0.13 Y-0.03
G1 X-0.105 Y-0.091
G1 X-0.07 Y-0.133
G1 X-0.024 Y-0.156
M106 S0 
G0 X-0.079 Y-1.24 F0
M106 S255
G1 X0.012 Y-0.139F300
G1 X0.038 Y-0.134
G1 X0.062 Y-0.117
G1 X0.087 Y-0.087
G1 X0.103 Y-0.054
G1 X0.11 Y-0.018
G1 X0.084 Y0.009
G1 X0.077 Y0.029
G1 X0.07 Y0.047
G1 X0.061 Y0.067
G1 X0.087 Y0.172
G1 X0.029 Y0.214
G1 X-0.03 Y0.218
G1 X-0.089 Y0.176
G1 X-0.063 Y0.068
G1 X-0.071 Y0.049
G1 X-0.078 Y0.029
G1 X-0.086 Y0.009
G1 X-0.083 Y-0.009
G1 X-0.076 Y-0.029
G1 X-0.069 Y-0.048
G1 X-0.061 Y-0.067
G1 X-0.086 Y-0.173
G1 X-0.028 Y-0.212
M106 S0 
G0 X1.446 Y-0.774 F0
M106 S255
G1  Y0.375F300
G1 X0.281
G1  Y-0.375
G1 X-0.013 Y-0.187
G1 X-0.042 Y-0.148
G1 X-0.071 Y-0.112
G1 X-0.103 Y-0.084
G1 X-0.069 Y0.141
G1 X0.068 Y0.056
G1 X0.048 Y0.078
G1 X0.029 Y0.108
G1 X0.012 Y0.148
G1 X-0.14
M106 S0 
G0 X0.648 Y1.323 F0
M106 S255
G1 X0.018 Y0.43F300
G1 X0.055 Y0.337
G1 X0.092 Y0.257
G1 X0.127 Y0.19
G1 X0.077 Y0.069
G1 X0.086 Y0.05
G1 X0.096 Y0.029
G1 X0.105 Y0.01
G1 X0.153 Y-0.022
G1 X0.132 Y-0.065
G1 X0.111 Y-0.106
G1 X0.091 Y-0.145
G1 X0.071 Y-0.182
G1 X0.054 Y-0.217
G1 X0.034 Y-0.276
G1 X0.011 Y-0.359
G1 X-0.018 Y-0.426
G1 X-0.055 Y-0.336
G1 X-0.091 Y-0.257
G1 X-0.127 Y-0.192
G1 X-0.077 Y-0.069
G1 X-0.087 Y-0.05
G1 X-0.096 Y-0.029
G1 X-0.106 Y-0.01
G1 X-0.137 Y0.017
G1 X-0.122 Y0.052
G1 X-0.107 Y0.087
G1 X-0.091 Y0.122
G1 X-0.087 Y0.194
G1 X-0.062 Y0.246
G1 X-0.038 Y0.3
G1 X-0.012 Y0.351
M106 S0 
G0 X0.254 Y0 F0
M106 S255
G1 X0.007 Y-0.302F300
G1 X0.022 Y-0.248
G1 X0.036 Y-0.192
G1 X0.051 Y-0.137
G1 X0.062 Y-0.096
G1 X0.068 Y-0.068
G1 X0.075 Y-0.042
G1 X0.081 Y-0.013
G1 X0.082 Y0.014
G1 X0.075 Y0.041
G1 X0.068 Y0.068
G1 X0.062 Y0.097
G1 X0.051 Y0.137
G1 X0.036 Y0.192
G1 X0.022 Y0.247
G1 X0.007 Y0.302
G1 X-0.007 Y0.304
G1 X-0.022 Y0.248
G1 X-0.036 Y0.192
G1 X-0.051 Y0.137
G1 X-0.062 Y0.095
G1 X-0.069 Y0.069
G1 X-0.075 Y0.04
G1 X-0.083 Y0.014
G1 X-0.081 Y-0.012
G1 X-0.072 Y-0.036
G1 X-0.064 Y-0.06
G1 X-0.055 Y-0.084
G1 X-0.056 Y-0.149
G1 X-0.04 Y-0.2
G1 X-0.024 Y-0.253
G1 X-0.008 Y-0.305
M106 S0 
G0 X1.31 Y0 F0
M106 S255
G1 X0.019 Y0.43F300
G1 X0.055 Y0.337
G1 X0.091 Y0.257
G1 X0.127 Y0.19
G1 X0.077 Y0.069
G1 X0.087 Y0.05
G1 X0.095 Y0.029
G1 X0.106 Y0.01
G1 X0.152 Y-0.022
G1 X0.132 Y-0.065
G1 X0.111 Y-0.106
G1 X0.091 Y-0.145
G1 X0.071 Y-0.182
G1 X0.054 Y-0.217
G1 X0.034 Y-0.276
G1 X0.011 Y-0.359
G1 X-0.018 Y-0.426
G1 X-0.055 Y-0.336
G1 X-0.091 Y-0.257
G1 X-0.126 Y-0.192
G1 X-0.078 Y-0.069
G1 X-0.086 Y-0.05
G1 X-0.097 Y-0.029
G1 X-0.105 Y-0.01
G1 X-0.138 Y0.017
G1 X-0.122 Y0.052
G1 X-0.107 Y0.087
G1 X-0.091 Y0.122
G1 X-0.087 Y0.194
G1 X-0.062 Y0.246
G1 X-0.037 Y0.3
G1 X-0.013 Y0.351
M106 S0 
G0 X0.254 Y0 F0
M106 S255
G1 X0.007 Y-0.302F300
G1 X0.022 Y-0.248
G1 X0.037 Y-0.192
G1 X0.05 Y-0.137
G1 X0.062 Y-0.096
G1 X0.068 Y-0.068
G1 X0.075 Y-0.042
G1 X0.082 Y-0.013
G1 X0.081 Y0.014
G1 X0.075 Y0.041
G1 X0.069 Y0.068
G1 X0.061 Y0.097
G1 X0.051 Y0.137
G1 X0.036 Y0.192
G1 X0.022 Y0.247
G1 X0.007 Y0.302
G1 X-0.007 Y0.304
G1 X-0.022 Y0.248
G1 X-0.036 Y0.192
G1 X-0.051 Y0.137
G1 X-0.062 Y0.095
G1 X-0.068 Y0.069
G1 X-0.076 Y0.04
G1 X-0.083 Y0.014
G1 X-0.081 Y-0.012
G1 X-0.072 Y-0.036
G1 X-0.064 Y-0.06
G1 X-0.055 Y-0.084
G1 X-0.056 Y-0.149
G1 X-0.04 Y-0.2
G1 X-0.024 Y-0.253
G1 X-0.008 Y-0.305
M106 S0 
G0 X1.31 Y0 F0
M106 S255
G1 X0.019 Y0.43F300
G1 X0.055 Y0.337
G1 X0.091 Y0.257
G1 X0.127 Y0.19
G1 X0.077 Y0.069
G1 X0.087 Y0.05
G1 X0.096 Y0.029
G1 X0.105 Y0.01
G1 X0.152 Y-0.022
G1 X0.132 Y-0.065
G1 X0.112 Y-0.106
G1 X0.09 Y-0.145
G1 X0.071 Y-0.182
G1 X0.054 Y-0.217
G1 X0.034 Y-0.276
G1 X0.011 Y-0.359
G1 X-0.018 Y-0.426
G1 X-0.055 Y-0.336
G1 X-0.09 Y-0.257
G1 X-0.127 Y-0.192
G1 X-0.077 Y-0.069
G1 X-0.087 Y-0.05
G1 X-0.096 Y-0.029
G1 X-0.106 Y-0.01
G1 X-0.138 Y0.017
G1 X-0.122 Y0.052
G1 X-0.107 Y0.087
G1 X-0.091 Y0.122
G1 X-0.087 Y0.194
G1 X-0.062 Y0.246
G1 X-0.037 Y0.3
G1 X-0.013 Y0.351
M106 S0 
G0 X0.254 Y0 F0
M106 S255
G1 X0.008 Y-0.302F300
G1 X0.021 Y-0.248
G1 X0.037 Y-0.192
G1 X0.05 Y-0.137
G1 X0.062 Y-0.096
G1 X0.068 Y-0.068
G1 X0.075 Y-0.042
G1 X0.082 Y-0.013
G1 X0.082 Y0.014
G1 X0.075 Y0.041
G1 X0.068 Y0.068
G1 X0.061 Y0.097
G1 X0.051 Y0.137
G1 X0.036 Y0.192
G1 X0.022 Y0.247
G1 X0.007 Y0.302
G1 X-0.007 Y0.304
G1 X-0.022 Y0.248
G1 X-0.036 Y0.192
G1 X-0.051 Y0.137
G1 X-0.061 Y0.095
G1 X-0.069 Y0.069
G1 X-0.076 Y0.04
G1 X-0.083 Y0.014
G1 X-0.081 Y-0.012
G1 X-0.072 Y-0.036
G1 X-0.064 Y-0.06
G1 X-0.055 Y-0.084
G1 X-0.056 Y-0.149
G1 X-0.04 Y-0.2
G1 X-0.024 Y-0.253
G1 X-0.008 Y-0.305
M106 S0 
G0 X-6.368 Y-7.823 F0
M106 S255
G1 X-0.247F300
G1  Y2.1
G1 X-0.103 Y-0.114
G1 X-0.131 Y-0.113
G1 X-0.137 Y-0.1
G1 X-0.123 Y-0.071
G1  Y0.319
G1 X0.194 Y0.144
G1 X0.168 Y0.171
G1 X0.133 Y0.182
G1 X0.087 Y0.177
G1 X0.159
G1  Y-2.695
M106 S0 
G0 X1.916 Y2.027 F0
M106 S255
G1 X-0.246 Y-0.026F300
G1 X-0.039 Y0.167
G1 X-0.054 Y0.115
G1 X-0.112 Y0.106
G1 X-0.135 Y0.035
G1 X-0.111 Y-0.022
G1 X-0.097 Y-0.066
G1 X-0.104 Y-0.14
G1 X-0.08 Y-0.191
G1 X-0.051 Y-0.265
G1 X-0.019 Y-0.356
G1 X0.1 Y0.158
G1 X0.119 Y0.111
G1 X0.132 Y0.066
G1 X0.138 Y0.022
G1 X0.119 Y-0.015
G1 X0.11 Y-0.046
G1 X0.101 Y-0.076
G1 X0.091 Y-0.106
G1 X0.076 Y-0.13
G1 X0.054 Y-0.148
G1 X0.033 Y-0.165
G1 X0.011 Y-0.184
G1 X-0.021 Y-0.244
G1 X-0.061 Y-0.226
G1 X-0.097 Y-0.191
G1 X-0.127 Y-0.141
G1 X-0.153 Y-0.086
G1 X-0.171 Y-0.029
G1 X-0.148 Y0.019
G1 X-0.133 Y0.057
G1 X-0.119 Y0.094
G1 X-0.104 Y0.133
G1 X-0.086 Y0.176
G1 X-0.061 Y0.225
G1 X-0.036 Y0.274
G1 X-0.012 Y0.324
G1 X0.013 Y0.362
G1 X0.04 Y0.31
G1 X0.068 Y0.256
G1 X0.094 Y0.203
G1 X0.102 Y0.135
G1 X0.119 Y0.096
G1 X0.135 Y0.058
G1 X0.151 Y0.019
G1 X0.113 Y-0.011
G1 X0.103 Y-0.034
G1 X0.092 Y-0.055
G1 X0.081 Y-0.078
G1 X0.069 Y-0.097
G1 X0.053 Y-0.114
G1 X0.037 Y-0.131
G1 X0.023 Y-0.148
M106 S0 
G0 X-1.009 Y-1.158 F0
M106 S255
G1 X0.013 Y-0.166F300
G1 X0.041 Y-0.16
G1 X0.065 Y-0.137
G1 X0.087 Y-0.1
G1 X0.1 Y-0.061
G1 X0.104 Y-0.02
G1 X0.076 Y0.01
G1 X0.07 Y0.032
G1 X0.065 Y0.053
G1 X0.059 Y0.073
G1 X0.084 Y0.199
G1 X0.028 Y0.259
G1 X-0.028 Y0.249
G1 X-0.083 Y0.19
G1 X-0.059 Y0.07
G1 X-0.067 Y0.05
G1 X-0.073 Y0.03
G1 X-0.081 Y0.01
G1 X-0.081 Y-0.01
G1 X-0.074 Y-0.03
G1 X-0.068 Y-0.05
G1 X-0.061 Y-0.07
G1 X-0.088 Y-0.186
G1 X-0.029 Y-0.235
M106 S0 
G0 X1.424 Y-0.869 F0
M106 S255
G1  Y0.375F300
G1 X0.281
G1  Y-0.375
G1 X-0.013 Y-0.187
G1 X-0.041 Y-0.148
G1 X-0.072 Y-0.112
G1 X-0.103 Y-0.084
G1 X-0.069 Y0.141
G1 X0.068 Y0.056
G1 X0.048 Y0.078
G1 X0.029 Y0.108
G1 X0.012 Y0.148
G1 X-0.14
M106 S0 
G0 X0.648 Y1.323 F0
M106 S255
G1 X0.018 Y0.43F300
G1 X0.056 Y0.337
G1 X0.091 Y0.257
G1 X0.127 Y0.19
G1 X0.077 Y0.069
G1 X0.087 Y0.05
G1 X0.095 Y0.029
G1 X0.106 Y0.01
G1 X0.152 Y-0.022
G1 X0.132 Y-0.065
G1 X0.111 Y-0.106
G1 X0.091 Y-0.145
G1 X0.071 Y-0.182
G1 X0.054 Y-0.217
G1 X0.034 Y-0.276
G1 X0.011 Y-0.359
G1 X-0.018 Y-0.426
G1 X-0.055 Y-0.336
G1 X-0.091 Y-0.257
G1 X-0.126 Y-0.192
G1 X-0.078 Y-0.069
G1 X-0.086 Y-0.05
G1 X-0.097 Y-0.029
G1 X-0.105 Y-0.01
G1 X-0.138 Y0.017
G1 X-0.122 Y0.052
G1 X-0.107 Y0.087
G1 X-0.091 Y0.122
G1 X-0.087 Y0.194
G1 X-0.062 Y0.246
G1 X-0.037 Y0.3
G1 X-0.013 Y0.351
M106 S0 
G0 X0.254 Y0 F0
M106 S255
G1 X0.007 Y-0.302F300
G1 X0.022 Y-0.248
G1 X0.036 Y-0.192
G1 X0.051 Y-0.137
G1 X0.062 Y-0.096
G1 X0.068 Y-0.068
G1 X0.075 Y-0.042
G1 X0.082 Y-0.013
G1 X0.081 Y0.014
G1 X0.075 Y0.041
G1 X0.068 Y0.068
G1 X0.062 Y0.097
G1 X0.051 Y0.137
G1 X0.036 Y0.192
G1 X0.022 Y0.247
G1 X0.007 Y0.302
G1 X-0.007 Y0.304
G1 X-0.022 Y0.248
G1 X-0.036 Y0.192
G1 X-0.051 Y0.137
G1 X-0.062 Y0.095
G1 X-0.068 Y0.069
G1 X-0.076 Y0.04
G1 X-0.083 Y0.014
G1 X-0.081 Y-0.012
G1 X-0.072 Y-0.036
G1 X-0.064 Y-0.06
G1 X-0.055 Y-0.084
G1 X-0.056 Y-0.149
G1 X-0.04 Y-0.2
G1 X-0.024 Y-0.253
G1 X-0.008 Y-0.305
M106 S0 
G0 X2.593 Y0.704 F0
M106 S255
G1 X-0.246 Y-0.026F300
G1 X-0.04 Y0.167
G1 X-0.053 Y0.115
G1 X-0.112 Y0.106
G1 X-0.135 Y0.035
G1 X-0.111 Y-0.022
G1 X-0.097 Y-0.066
G1 X-0.104 Y-0.14
G1 X-0.08 Y-0.191
G1 X-0.051 Y-0.265
G1 X-0.019 Y-0.356
G1 X0.099 Y0.158
G1 X0.119 Y0.111
G1 X0.133 Y0.066
G1 X0.138 Y0.022
G1 X0.119 Y-0.015
G1 X0.11 Y-0.046
G1 X0.1 Y-0.076
G1 X0.092 Y-0.106
G1 X0.076 Y-0.13
G1 X0.054 Y-0.148
G1 X0.033 Y-0.165
G1 X0.011 Y-0.184
G1 X-0.021 Y-0.244
G1 X-0.061 Y-0.226
G1 X-0.097 Y-0.191
G1 X-0.128 Y-0.141
G1 X-0.152 Y-0.086
G1 X-0.172 Y-0.029
G1 X-0.147 Y0.019
G1 X-0.133 Y0.057
G1 X-0.119 Y0.094
G1 X-0.105 Y0.133
G1 X-0.085 Y0.176
G1 X-0.061 Y0.225
G1 X-0.036 Y0.274
G1 X-0.013 Y0.324
G1 X0.014 Y0.362
G1 X0.04 Y0.31
G1 X0.068 Y0.256
G1 X0.094 Y0.203
G1 X0.102 Y0.135
G1 X0.119 Y0.096
G1 X0.135 Y0.058
G1 X0.151 Y0.019
G1 X0.113 Y-0.011
G1 X0.103 Y-0.034
G1 X0.092 Y-0.055
G1 X0.081 Y-0.078
G1 X0.068 Y-0.097
G1 X0.053 Y-0.114
G1 X0.038 Y-0.131
G1 X0.023 Y-0.148
M106 S0 
G0 X-1.009 Y-1.158 F0
M106 S255
G1 X0.013 Y-0.166F300
G1 X0.041 Y-0.16
G1 X0.065 Y-0.137
G1 X0.087 Y-0.1
G1 X0.099 Y-0.061
G1 X0.105 Y-0.02
G1 X0.076 Y0.01
G1 X0.07 Y0.032
G1 X0.064 Y0.053
G1 X0.059 Y0.073
G1 X0.085 Y0.199
G1 X0.028 Y0.259
G1 X-0.028 Y0.249
G1 X-0.083 Y0.19
G1 X-0.059 Y0.07
G1 X-0.067 Y0.05
G1 X-0.074 Y0.03
G1 X-0.08 Y0.01
G1 X-0.081 Y-0.01
G1 X-0.074 Y-0.03
G1 X-0.068 Y-0.05
G1 X-0.062 Y-0.07
G1 X-0.087 Y-0.186
G1 X-0.029 Y-0.235
M106 S0 
G0 X1.307 Y1.463 F0
M106 S255
G1  Y0.317F300
G1 X1.303
G1  Y-0.256
G1 X-0.191 Y-0.318
G1 X-0.19 Y-0.407
G1 X-0.167 Y-0.459
G1 X-0.125 Y-0.472
G1 X-0.06 Y-0.352
G1 X-0.034 Y-0.385
G1 X-0.255
G1 X0.026 Y0.349
G1 X0.068 Y0.416
G1 X0.109 Y0.441
G1 X0.147 Y0.424
G1 X0.172 Y0.384
G1 X0.183 Y0.318
G1 X-0.986
M106 S0 
G0 X-6.124 Y-8.832 F0
M106 S255
G1 X-0.247F300
G1  Y2.1
G1 X-0.103 Y-0.114
G1 X-0.131 Y-0.113
G1 X-0.137 Y-0.1
G1 X-0.123 Y-0.071
G1  Y0.319
G1 X0.194 Y0.144
G1 X0.168 Y0.171
G1 X0.133 Y0.182
G1 X0.087 Y0.177
G1 X0.159
G1  Y-2.695
M106 S0 
G0 X1.426 Y-0 F0
M106 S255
G1  Y0.642F300
G1 X-0.873
G1  Y0.302
G1 X0.918 Y1.74
G1 X0.202
G1  Y-1.74
G1 X0.272
G1  Y-0.302
G1 X-0.272
G1  Y-0.642
G1 X-0.247
M106 S0 
G0 X-0 Y0.944 F0
M106 S255
G1  Y1.211F300
G1 X-0.63 Y-1.211
G1 X0.63
M106 S0 
G0 X0.905 Y-0.944 F0
M106 S255
G1  Y0.375F300
G1 X0.281
G1  Y-0.375
G1 X-0.013 Y-0.187
G1 X-0.041 Y-0.148
G1 X-0.072 Y-0.112
G1 X-0.103 Y-0.084
G1 X-0.069 Y0.141
G1 X0.068 Y0.056
G1 X0.048 Y0.078
G1 X0.029 Y0.108
G1 X0.012 Y0.148
G1 X-0.14
M106 S0 
G0 X1.579 Y-0 F0
M106 S255
G1 X-0.247F300
G1  Y2.1
G1 X-0.103 Y-0.114
G1 X-0.131 Y-0.113
G1 X-0.138 Y-0.1
G1 X-0.122 Y-0.071
G1  Y0.319
G1 X0.194 Y0.144
G1 X0.168 Y0.171
G1 X0.133 Y0.182
G1 X0.087 Y0.177
G1 X0.159
G1  Y-2.695
M106 S0 
G0 X0.635 Y0.708 F0
M106 S255
G1 X0.247 Y0.044F300
G1 X0.057 Y-0.241
G1 X0.088 Y-0.163
G1 X0.113 Y-0.092
G1 X0.136 Y-0.031
G1 X0.084 Y0.01
G1 X0.077 Y0.03
G1 X0.07 Y0.05
G1 X0.064 Y0.071
G1 X0.09 Y0.18
G1 X0.03 Y0.219
G1 X-0.028 Y0.207
G1 X-0.083 Y0.168
G1 X-0.06 Y0.064
G1 X-0.067 Y0.046
G1 X-0.074 Y0.028
G1 X-0.082 Y0.009
G1 X-0.079 Y-0.009
G1 X-0.096 Y-0.028
G1 X0.028 Y0.29
G1 X0.039
G1 X0.151 Y0.023
G1 X0.134 Y0.083
G1 X0.055 Y0.062
G1 X0.04 Y0.077
G1 X0.023 Y0.093
G1 X0.008 Y0.107
G1 X-0.023 Y0.165
G1 X-0.069 Y0.135
G1 X-0.105 Y0.089
G1 X-0.132 Y0.03
G1 X-0.133 Y-0.03
G1 X-0.108 Y-0.091
G1 X-0.079 Y-0.151
G1 X-0.044 Y-0.212
G1 X-0.248 Y0.059
G1 X0.03 Y0.156
G1 X0.045 Y0.138
G1 X0.058 Y0.119
G1 X0.073 Y0.101
G1 X0.086 Y0.079
G1 X0.095 Y0.057
G1 X0.104 Y0.035
G1 X0.115 Y0.011
G1 X0.158 Y-0.024
G1 X0.146 Y-0.07
G1 X0.122 Y-0.112
G1 X0.09 Y-0.146
G1 X0.055 Y-0.168
G1 X0.018 Y-0.178
G1 X-0.017 Y-0.166
G1 X-0.053 Y-0.151
G1 X-0.087 Y-0.128
G1 X-0.12 Y-0.099
G1 X0.158 Y-0.084
G1 X0.119 Y-0.144
G1 X0.074 Y-0.194
G1 X0.025 Y-0.239
G1 X-0.012 Y-0.169
G1 X-0.036 Y-0.155
G1 X-0.06 Y-0.143
G1 X-0.084 Y-0.129
G1 X-0.103 Y-0.107
G1 X-0.115 Y-0.076
G1 X-0.128 Y-0.046
G1 X-0.14 Y-0.015
G1 X-0.127 Y0.013
G1 X-0.116 Y0.04
G1 X-0.104 Y0.065
G1 X-0.094 Y0.093
G1 X-0.078 Y0.113
G1 X-0.059 Y0.128
G1 X-0.041 Y0.144
G1 X-0.021 Y0.16
M106 S0 
G0 X1.564 Y0 F0
M106 S255
G1 X0.247 Y0.044F300
G1 X0.058 Y-0.241
G1 X0.087 Y-0.163
G1 X0.113 Y-0.092
G1 X0.136 Y-0.031
G1 X0.084 Y0.01
G1 X0.077 Y0.03
G1 X0.07 Y0.05
G1 X0.064 Y0.071
G1 X0.09 Y0.18
G1 X0.03 Y0.219
G1 X-0.028 Y0.207
G1 X-0.083 Y0.168
G1 X-0.06 Y0.064
G1 X-0.067 Y0.046
G1 X-0.074 Y0.028
G1 X-0.082 Y0.009
G1 X-0.079 Y-0.009
G1 X-0.096 Y-0.028
G1 X0.028 Y0.29
G1 X0.04
G1 X0.15 Y0.023
G1 X0.134 Y0.083
G1 X0.055 Y0.062
G1 X0.04 Y0.077
G1 X0.023 Y0.093
G1 X0.008 Y0.107
G1 X-0.023 Y0.165
G1 X-0.069 Y0.135
G1 X-0.105 Y0.089
G1 X-0.132 Y0.03
G1 X-0.132 Y-0.03
G1 X-0.109 Y-0.091
G1 X-0.079 Y-0.151
G1 X-0.044 Y-0.212
G1 X-0.247 Y0.059
G1 X0.029 Y0.156
G1 X0.045 Y0.138
G1 X0.058 Y0.119
G1 X0.074 Y0.101
G1 X0.085 Y0.079
G1 X0.095 Y0.057
G1 X0.105 Y0.035
G1 X0.114 Y0.011
G1 X0.158 Y-0.024
G1 X0.146 Y-0.07
G1 X0.122 Y-0.112
G1 X0.09 Y-0.146
G1 X0.055 Y-0.168
G1 X0.018 Y-0.178
G1 X-0.017 Y-0.166
G1 X-0.053 Y-0.151
G1 X-0.087 Y-0.128
G1 X-0.12 Y-0.099
G1 X0.159 Y-0.084
G1 X0.118 Y-0.144
G1 X0.074 Y-0.194
G1 X0.025 Y-0.239
G1 X-0.012 Y-0.169
G1 X-0.036 Y-0.155
G1 X-0.06 Y-0.143
G1 X-0.084 Y-0.129
G1 X-0.103 Y-0.107
G1 X-0.115 Y-0.076
G1 X-0.128 Y-0.046
G1 X-0.14 Y-0.015
G1 X-0.127 Y0.013
G1 X-0.116 Y0.04
G1 X-0.104 Y0.065
G1 X-0.093 Y0.093
G1 X-0.078 Y0.113
G1 X-0.06 Y0.128
G1 X-0.04 Y0.144
G1 X-0.022 Y0.16
M106 S0 
G0 X-6.102 Y-7.208 F0
M106 S255
G1 X-0.247F300
G1  Y2.1
G1 X-0.103 Y-0.114
G1 X-0.131 Y-0.113
G1 X-0.138 Y-0.1
G1 X-0.122 Y-0.071
G1  Y0.319
G1 X0.194 Y0.144
G1 X0.168 Y0.171
G1 X0.133 Y0.182
G1 X0.087 Y0.177
G1 X0.159
G1  Y-2.695
M106 S0 
G0 X1.933 Y0.316 F0
M106 S255
G1  Y-0.316F300
G1 X-1.331
G1 X0.006 Y0.116
G1 X0.023 Y0.112
G1 X0.066 Y0.18
G1 X0.096 Y0.178
G1 X0.137 Y0.189
G1 X0.187 Y0.217
G1 X0.151 Y0.17
G1 X0.124 Y0.152
G1 X0.097 Y0.132
G1 X0.071 Y0.115
G1 X0.087 Y0.203
G1 X0.029 Y0.193
G1 X-0.027 Y0.181
G1 X-0.078 Y0.149
G1 X-0.121 Y0.101
G1 X-0.153 Y0.034
G1 X-0.085 Y-0.009
G1 X-0.076 Y-0.027
G1 X-0.067 Y-0.044
G1 X-0.058 Y-0.063
G1 X-0.081 Y-0.17
G1 X-0.027 Y-0.225
G1 X-0.254 Y0.035
G1 X0.022 Y0.178
G1 X0.04 Y0.155
G1 X0.058 Y0.134
G1 X0.076 Y0.11
G1 X0.092 Y0.087
G1 X0.107 Y0.062
G1 X0.122 Y0.037
G1 X0.136 Y0.013
G1 X0.138 Y-0.013
G1 X0.122 Y-0.041
G1 X0.107 Y-0.067
G1 X0.092 Y-0.093
G1 X0.074 Y-0.114
G1 X0.053 Y-0.126
G1 X0.031 Y-0.139
G1 X0.011 Y-0.152
G1 X-0.013 Y-0.16
G1 X-0.037 Y-0.157
G1 X-0.065 Y-0.16
G1 X-0.099 Y-0.168
G1 X-0.152 Y-0.204
G1 X-0.229 Y-0.268
G1 X-0.182 Y-0.209
G1 X-0.062 Y-0.075
G1 X-0.041 Y-0.054
G1 X-0.058 Y-0.089
G1 X-0.047 Y-0.09
G1 X0.988
M106 S0 
G0 X0.398 Y-0.316 F0
M106 S255
G1  Y0.375F300
G1 X0.281
G1  Y-0.375
G1 X-0.013 Y-0.187
G1 X-0.042 Y-0.148
G1 X-0.071 Y-0.112
G1 X-0.103 Y-0.084
G1 X-0.069 Y0.141
G1 X0.068 Y0.056
G1 X0.048 Y0.078
G1 X0.029 Y0.108
G1 X0.012 Y0.148
G1 X-0.14
M106 S0 
G0 X1.947 Y0.316 F0
M106 S255
G1  Y-0.316F300
G1 X-1.331
G1 X0.006 Y0.116
G1 X0.023 Y0.112
G1 X0.066 Y0.18
G1 X0.097 Y0.178
G1 X0.137 Y0.189
G1 X0.186 Y0.217
G1 X0.151 Y0.17
G1 X0.124 Y0.152
G1 X0.098 Y0.132
G1 X0.071 Y0.115
G1 X0.086 Y0.203
G1 X0.029 Y0.193
G1 X-0.026 Y0.181
G1 X-0.079 Y0.149
G1 X-0.121 Y0.101
G1 X-0.153 Y0.034
G1 X-0.085 Y-0.009
G1 X-0.075 Y-0.027
G1 X-0.067 Y-0.044
G1 X-0.058 Y-0.063
G1 X-0.081 Y-0.17
G1 X-0.028 Y-0.225
G1 X-0.254 Y0.035
G1 X0.022 Y0.178
G1 X0.04 Y0.155
G1 X0.058 Y0.134
G1 X0.076 Y0.11
G1 X0.093 Y0.087
G1 X0.107 Y0.062
G1 X0.122 Y0.037
G1 X0.136 Y0.013
G1 X0.137 Y-0.013
G1 X0.122 Y-0.041
G1 X0.107 Y-0.067
G1 X0.092 Y-0.093
G1 X0.074 Y-0.114
G1 X0.053 Y-0.126
G1 X0.032 Y-0.139
G1 X0.01 Y-0.152
G1 X-0.012 Y-0.16
G1 X-0.037 Y-0.157
G1 X-0.066 Y-0.16
G1 X-0.098 Y-0.168
G1 X-0.153 Y-0.204
G1 X-0.228 Y-0.268
G1 X-0.183 Y-0.209
G1 X-0.061 Y-0.075
G1 X-0.042 Y-0.054
G1 X-0.058 Y-0.089
G1 X-0.046 Y-0.09
G1 X0.987
M106 S0 
G0 X0.265 Y1.007 F0
M106 S255
G1 X0.019 Y0.43F300
G1 X0.055 Y0.337
G1 X0.091 Y0.257
G1 X0.127 Y0.19
G1 X0.077 Y0.069
G1 X0.087 Y0.05
G1 X0.095 Y0.029
G1 X0.106 Y0.01
G1 X0.152 Y-0.022
G1 X0.132 Y-0.065
G1 X0.111 Y-0.106
G1 X0.091 Y-0.145
G1 X0.071 Y-0.182
G1 X0.054 Y-0.217
G1 X0.034 Y-0.276
G1 X0.011 Y-0.359
G1 X-0.018 Y-0.426
G1 X-0.055 Y-0.336
G1 X-0.091 Y-0.257
G1 X-0.126 Y-0.192
G1 X-0.078 Y-0.069
G1 X-0.086 Y-0.05
G1 X-0.097 Y-0.029
G1 X-0.105 Y-0.01
G1 X-0.138 Y0.017
G1 X-0.122 Y0.052
G1 X-0.107 Y0.087
G1 X-0.091 Y0.122
G1 X-0.087 Y0.194
G1 X-0.062 Y0.246
G1 X-0.037 Y0.3
G1 X-0.013 Y0.351
M106 S0 
G0 X0.254 Y0 F0
M106 S255
G1 X0.007 Y-0.302F300
G1 X0.022 Y-0.248
G1 X0.037 Y-0.192
G1 X0.05 Y-0.137
G1 X0.062 Y-0.096
G1 X0.068 Y-0.068
G1 X0.075 Y-0.042
G1 X0.082 Y-0.013
G1 X0.081 Y0.014
G1 X0.075 Y0.041
G1 X0.069 Y0.068
G1 X0.061 Y0.097
G1 X0.051 Y0.137
G1 X0.036 Y0.192
G1 X0.022 Y0.247
G1 X0.007 Y0.302
G1 X-0.007 Y0.304
G1 X-0.022 Y0.248
G1 X-0.036 Y0.192
G1 X-0.051 Y0.137
G1 X-0.062 Y0.095
G1 X-0.068 Y0.069
G1 X-0.076 Y0.04
G1 X-0.083 Y0.014
G1 X-0.081 Y-0.012
G1 X-0.072 Y-0.036
G1 X-0.064 Y-0.06
G1 X-0.055 Y-0.084
G1 X-0.056 Y-0.149
G1 X-0.04 Y-0.2
G1 X-0.024 Y-0.253
G1 X-0.008 Y-0.305
M106 S0 
G0 X1.31 Y0 F0
M106 S255
G1 X0.019 Y0.43F300
G1 X0.055 Y0.337
G1 X0.091 Y0.257
G1 X0.127 Y0.19
G1 X0.077 Y0.069
G1 X0.087 Y0.05
G1 X0.096 Y0.029
G1 X0.105 Y0.01
G1 X0.152 Y-0.022
G1 X0.132 Y-0.065
G1 X0.112 Y-0.106
G1 X0.09 Y-0.145
G1 X0.071 Y-0.182
G1 X0.054 Y-0.217
G1 X0.034 Y-0.276
G1 X0.011 Y-0.359
G1 X-0.018 Y-0.426
G1 X-0.055 Y-0.336
G1 X-0.09 Y-0.257
G1 X-0.127 Y-0.192
G1 X-0.077 Y-0.069
G1 X-0.087 Y-0.05
G1 X-0.096 Y-0.029
G1 X-0.106 Y-0.01
G1 X-0.138 Y0.017
G1 X-0.122 Y0.052
G1 X-0.107 Y0.087
G1 X-0.091 Y0.122
G1 X-0.087 Y0.194
G1 X-0.062 Y0.246
G1 X-0.037 Y0.3
G1 X-0.013 Y0.351
M106 S0 
G0 X0.254 Y0 F0
M106 S255
G1 X0.008 Y-0.302F300
G1 X0.021 Y-0.248
G1 X0.037 Y-0.192
G1 X0.05 Y-0.137
G1 X0.062 Y-0.096
G1 X0.068 Y-0.068
G1 X0.075 Y-0.042
G1 X0.082 Y-0.013
G1 X0.082 Y0.014
G1 X0.075 Y0.041
G1 X0.068 Y0.068
G1 X0.061 Y0.097
G1 X0.051 Y0.137
G1 X0.036 Y0.192
G1 X0.022 Y0.247
G1 X0.007 Y0.302
G1 X-0.007 Y0.304
G1 X-0.022 Y0.248
G1 X-0.036 Y0.192
G1 X-0.051 Y0.137
G1 X-0.061 Y0.095
G1 X-0.069 Y0.069
G1 X-0.076 Y0.04
G1 X-0.083 Y0.014
G1 X-0.081 Y-0.012
G1 X-0.072 Y-0.036
G1 X-0.064 Y-0.06
G1 X-0.055 Y-0.084
G1 X-0.056 Y-0.149
G1 X-0.04 Y-0.2
G1 X-0.024 Y-0.253
G1 X-0.008 Y-0.305
M106 S0 
G0 X-6.368 Y-7.823 F0
M106 S255
G1 X-0.247F300
G1  Y2.1
G1 X-0.103 Y-0.114
G1 X-0.131 Y-0.113
G1 X-0.137 Y-0.1
G1 X-0.123 Y-0.071
G1  Y0.319
G1 X0.194 Y0.144
G1 X0.168 Y0.171
G1 X0.133 Y0.182
G1 X0.087 Y0.177
G1 X0.159
G1  Y-2.695
M106 S0 
G0 X0.634 Y1.323 F0
M106 S255
G1 X0.018 Y0.43F300
G1 X0.055 Y0.337
G1 X0.091 Y0.257
G1 X0.127 Y0.19
G1 X0.077 Y0.069
G1 X0.087 Y0.05
G1 X0.096 Y0.029
G1 X0.105 Y0.01
G1 X0.152 Y-0.022
G1 X0.132 Y-0.065
G1 X0.112 Y-0.106
G1 X0.09 Y-0.145
G1 X0.071 Y-0.182
G1 X0.054 Y-0.217
G1 X0.034 Y-0.276
G1 X0.011 Y-0.359
G1 X-0.018 Y-0.426
G1 X-0.054 Y-0.336
G1 X-0.091 Y-0.257
G1 X-0.127 Y-0.192
G1 X-0.077 Y-0.069
G1 X-0.087 Y-0.05
G1 X-0.096 Y-0.029
G1 X-0.106 Y-0.01
G1 X-0.138 Y0.017
G1 X-0.122 Y0.052
G1 X-0.106 Y0.087
G1 X-0.091 Y0.122
G1 X-0.087 Y0.194
G1 X-0.063 Y0.246
G1 X-0.037 Y0.3
G1 X-0.012 Y0.351
M106 S0 
G0 X0.254 Y0 F0
M106 S255
G1 X0.007 Y-0.302F300
G1 X0.022 Y-0.248
G1 X0.036 Y-0.192
G1 X0.051 Y-0.137
G1 X0.061 Y-0.096
G1 X0.068 Y-0.068
G1 X0.075 Y-0.042
G1 X0.082 Y-0.013
G1 X0.082 Y0.014
G1 X0.075 Y0.041
G1 X0.068 Y0.068
G1 X0.061 Y0.097
G1 X0.051 Y0.137
G1 X0.036 Y0.192
G1 X0.022 Y0.247
G1 X0.007 Y0.302
G1 X-0.007 Y0.304
G1 X-0.022 Y0.248
G1 X-0.036 Y0.192
G1 X-0.051 Y0.137
G1 X-0.061 Y0.095
G1 X-0.069 Y0.069
G1 X-0.076 Y0.04
G1 X-0.083 Y0.014
G1 X-0.081 Y-0.012
G1 X-0.072 Y-0.036
G1 X-0.064 Y-0.06
G1 X-0.055 Y-0.084
G1 X-0.056 Y-0.149
G1 X-0.039 Y-0.2
G1 X-0.024 Y-0.253
G1 X-0.008 Y-0.305
M106 S0 
G0 X1.443 Y-1.323 F0
M106 S255
G1  Y0.375F300
G1 X0.281
G1  Y-0.375
G1 X-0.013 Y-0.187
G1 X-0.041 Y-0.148
G1 X-0.072 Y-0.112
G1 X-0.103 Y-0.084
G1 X-0.069 Y0.141
G1 X0.068 Y0.056
G1 X0.048 Y0.078
G1 X0.029 Y0.108
G1 X0.012 Y0.148
G1 X-0.14
M106 S0 
G0 X1.947 Y0.316 F0
M106 S255
G1  Y-0.316F300
G1 X-1.33
G1 X0.005 Y0.116
G1 X0.023 Y0.112
G1 X0.066 Y0.18
G1 X0.097 Y0.178
G1 X0.137 Y0.189
G1 X0.187 Y0.217
G1 X0.15 Y0.17
G1 X0.125 Y0.152
G1 X0.097 Y0.132
G1 X0.071 Y0.115
G1 X0.087 Y0.203
G1 X0.028 Y0.193
G1 X-0.026 Y0.181
G1 X-0.079 Y0.149
G1 X-0.121 Y0.101
G1 X-0.153 Y0.034
G1 X-0.084 Y-0.009
G1 X-0.076 Y-0.027
G1 X-0.067 Y-0.044
G1 X-0.058 Y-0.063
G1 X-0.081 Y-0.17
G1 X-0.028 Y-0.225
G1 X-0.254 Y0.035
G1 X0.022 Y0.178
G1 X0.04 Y0.155
G1 X0.058 Y0.134
G1 X0.077 Y0.11
G1 X0.092 Y0.087
G1 X0.107 Y0.062
G1 X0.122 Y0.037
G1 X0.136 Y0.013
G1 X0.137 Y-0.013
G1 X0.122 Y-0.041
G1 X0.108 Y-0.067
G1 X0.092 Y-0.093
G1 X0.073 Y-0.114
G1 X0.053 Y-0.126
G1 X0.032 Y-0.139
G1 X0.011 Y-0.152
G1 X-0.013 Y-0.16
G1 X-0.037 Y-0.157
G1 X-0.066 Y-0.16
G1 X-0.098 Y-0.168
G1 X-0.153 Y-0.204
G1 X-0.228 Y-0.268
G1 X-0.183 Y-0.209
G1 X-0.061 Y-0.075
G1 X-0.042 Y-0.054
G1 X-0.057 Y-0.089
G1 X-0.047 Y-0.09
G1 X0.987
M106 S0 
G0 X1.548 Y1.711 F0
M106 S255
G1 X-0.246 Y-0.026F300
G1 X-0.04 Y0.167
G1 X-0.053 Y0.115
G1 X-0.112 Y0.106
G1 X-0.135 Y0.035
G1 X-0.111 Y-0.022
G1 X-0.097 Y-0.066
G1 X-0.104 Y-0.14
G1 X-0.08 Y-0.191
G1 X-0.051 Y-0.265
G1 X-0.019 Y-0.356
G1 X0.099 Y0.158
G1 X0.119 Y0.111
G1 X0.133 Y0.066
G1 X0.138 Y0.022
G1 X0.119 Y-0.015
G1 X0.11 Y-0.046
G1 X0.1 Y-0.076
G1 X0.092 Y-0.106
G1 X0.076 Y-0.13
G1 X0.054 Y-0.148
G1 X0.033 Y-0.165
G1 X0.011 Y-0.184
G1 X-0.021 Y-0.244
G1 X-0.061 Y-0.226
G1 X-0.097 Y-0.191
G1 X-0.128 Y-0.141
G1 X-0.152 Y-0.086
G1 X-0.172 Y-0.029
G1 X-0.147 Y0.019
G1 X-0.133 Y0.057
G1 X-0.119 Y0.094
G1 X-0.105 Y0.133
G1 X-0.085 Y0.176
G1 X-0.061 Y0.225
G1 X-0.036 Y0.274
G1 X-0.013 Y0.324
G1 X0.014 Y0.362
G1 X0.04 Y0.31
G1 X0.068 Y0.256
G1 X0.094 Y0.203
G1 X0.102 Y0.135
G1 X0.119 Y0.096
G1 X0.135 Y0.058
G1 X0.151 Y0.019
G1 X0.113 Y-0.011
G1 X0.103 Y-0.034
G1 X0.092 Y-0.055
G1 X0.081 Y-0.078
G1 X0.068 Y-0.097
G1 X0.053 Y-0.114
G1 X0.038 Y-0.131
G1 X0.023 Y-0.148
M106 S0 
G0 X-1.009 Y-1.158 F0
M106 S255
G1 X0.013 Y-0.166F300
G1 X0.041 Y-0.16
G1 X0.065 Y-0.137
G1 X0.087 Y-0.1
G1 X0.099 Y-0.061
G1 X0.105 Y-0.02
G1 X0.076 Y0.01
G1 X0.07 Y0.032
G1 X0.064 Y0.053
G1 X0.059 Y0.073
G1 X0.085 Y0.199
G1 X0.028 Y0.259
G1 X-0.028 Y0.249
G1 X-0.083 Y0.19
G1 X-0.059 Y0.07
G1 X-0.067 Y0.05
G1 X-0.074 Y0.03
G1 X-0.08 Y0.01
G1 X-0.081 Y-0.01
G1 X-0.074 Y-0.03
G1 X-0.068 Y-0.05
G1 X-0.062 Y-0.07
G1 X-0.087 Y-0.186
G1 X-0.029 Y-0.235
M106 S0 
G0 X1.307 Y1.463 F0
M106 S255
G1  Y0.317F300
G1 X1.303
G1  Y-0.256
G1 X-0.191 Y-0.318
G1 X-0.19 Y-0.407
G1 X-0.167 Y-0.459
G1 X-0.125 Y-0.472
G1 X-0.06 Y-0.352
G1 X-0.034 Y-0.385
G1 X-0.255
G1 X0.026 Y0.349
G1 X0.068 Y0.416
G1 X0.109 Y0.441
G1 X0.147 Y0.424
G1 X0.172 Y0.384
G1 X0.183 Y0.318
G1 X-0.986
M106 S0 
G0 X-5.11 Y-7.377 F0
M106 S255
G1 X-0.134 Y0.091F300
G1 X-0.094 Y0.124
G1 X-0.056 Y0.152
G1 X-0.018 Y0.181
G1 X0.01 Y0.14
G1 X0.029 Y0.129
G1 X0.05 Y0.118
G1 X0.069 Y0.105
G1 X0.085 Y0.088
G1 X0.099 Y0.062
G1 X0.111 Y0.037
G1 X0.125 Y0.013
G1 X0.125 Y-0.013
G1 X0.113 Y-0.038
G1 X0.1 Y-0.064
G1 X0.086 Y-0.089
G1 X0.071 Y-0.108
G1 X0.05 Y-0.119
G1 X0.03 Y-0.129
G1 X0.01 Y-0.141
G1 X-0.018 Y-0.175
G1 X-0.055 Y-0.15
G1 X-0.093 Y-0.123
G1 X-0.131 Y-0.091
G1 X0.164 Y-0.105
G1 X0.119 Y-0.155
G1 X0.072 Y-0.197
G1 X0.024 Y-0.231
G1 X-0.011 Y-0.165
G1 X-0.034 Y-0.152
G1 X-0.057 Y-0.138
G1 X-0.08 Y-0.124
G1 X-0.099 Y-0.102
G1 X-0.113 Y-0.074
G1 X-0.127 Y-0.044
G1 X-0.142 Y-0.014
G1 X-0.142 Y0.015
G1 X-0.127 Y0.044
G1 X-0.113 Y0.073
G1 X-0.099 Y0.103
G1 X-0.079 Y0.125
G1 X-0.058 Y0.139
G1 X-0.034 Y0.154
G1 X-0.011 Y0.169
G1 X0.025 Y0.241
G1 X0.074 Y0.197
G1 X0.121 Y0.149
G1 X0.163 Y0.092
M106 S0 
G0 X-0.049 Y0.559 F0
M106 S255
G1 X0.023 Y-0.173F300
G1 X0.069 Y-0.139
G1 X0.105 Y-0.09
G1 X0.133 Y-0.03
G1 X0.13 Y0.03
G1 X0.105 Y0.09
G1 X0.068 Y0.133
G1 X0.023 Y0.16
G1 X-0.024 Y0.167
G1 X-0.07 Y0.138
G1 X-0.106 Y0.093
G1 X-0.128 Y0.031
G1 X-0.13 Y-0.03
G1 X-0.105 Y-0.091
G1 X-0.07 Y-0.133
G1 X-0.023 Y-0.156
M106 S0 
G0 X-0.08 Y-1.24 F0
M106 S255
G1 X0.012 Y-0.139F300
G1 X0.038 Y-0.134
G1 X0.062 Y-0.117
G1 X0.087 Y-0.087
G1 X0.103 Y-0.054
G1 X0.11 Y-0.018
G1 X0.085 Y0.009
G1 X0.077 Y0.029
G1 X0.069 Y0.047
G1 X0.061 Y0.067
G1 X0.087 Y0.172
G1 X0.029 Y0.214
G1 X-0.03 Y0.218
G1 X-0.089 Y0.176
G1 X-0.063 Y0.068
G1 X-0.071 Y0.049
G1 X-0.078 Y0.029
G1 X-0.085 Y0.009
G1 X-0.084 Y-0.009
G1 X-0.076 Y-0.029
G1 X-0.068 Y-0.048
G1 X-0.061 Y-0.067
G1 X-0.086 Y-0.173
G1 X-0.029 Y-0.212
M106 S0 
G0 X1.446 Y-0.774 F0
M106 S255
G1  Y0.375F300
G1 X0.281
G1  Y-0.375
G1 X-0.013 Y-0.187
G1 X-0.041 Y-0.148
G1 X-0.072 Y-0.112
G1 X-0.103 Y-0.084
G1 X-0.069 Y0.141
G1 X0.068 Y0.056
G1 X0.048 Y0.078
G1 X0.029 Y0.108
G1 X0.012 Y0.148
G1 X-0.14
M106 S0 
G0 X0.65 Y0.708 F0
M106 S255
G1 X0.247 Y0.044F300
G1 X0.057 Y-0.241
G1 X0.088 Y-0.163
G1 X0.113 Y-0.092
G1 X0.136 Y-0.031
G1 X0.084 Y0.01
G1 X0.077 Y0.03
G1 X0.07 Y0.05
G1 X0.063 Y0.071
G1 X0.091 Y0.18
G1 X0.03 Y0.219
G1 X-0.028 Y0.207
G1 X-0.084 Y0.168
G1 X-0.059 Y0.064
G1 X-0.067 Y0.046
G1 X-0.075 Y0.028
G1 X-0.082 Y0.009
G1 X-0.078 Y-0.009
G1 X-0.096 Y-0.028
G1 X0.027 Y0.29
G1 X0.04
G1 X0.15 Y0.023
G1 X0.135 Y0.083
G1 X0.055 Y0.062
G1 X0.039 Y0.077
G1 X0.024 Y0.093
G1 X0.008 Y0.107
G1 X-0.023 Y0.165
G1 X-0.069 Y0.135
G1 X-0.105 Y0.089
G1 X-0.133 Y0.03
G1 X-0.132 Y-0.03
G1 X-0.108 Y-0.091
G1 X-0.079 Y-0.151
G1 X-0.045 Y-0.212
G1 X-0.247 Y0.059
G1 X0.03 Y0.156
G1 X0.044 Y0.138
G1 X0.059 Y0.119
G1 X0.073 Y0.101
G1 X0.085 Y0.079
G1 X0.095 Y0.057
G1 X0.105 Y0.035
G1 X0.115 Y0.011
G1 X0.158 Y-0.024
G1 X0.145 Y-0.07
G1 X0.123 Y-0.112
G1 X0.09 Y-0.146
G1 X0.055 Y-0.168
G1 X0.018 Y-0.178
G1 X-0.018 Y-0.166
G1 X-0.052 Y-0.151
G1 X-0.087 Y-0.128
G1 X-0.12 Y-0.099
G1 X0.158 Y-0.084
G1 X0.119 Y-0.144
G1 X0.074 Y-0.194
G1 X0.025 Y-0.239
G1 X-0.012 Y-0.169
G1 X-0.036 Y-0.155
G1 X-0.06 Y-0.143
G1 X-0.084 Y-0.129
G1 X-0.103 Y-0.107
G1 X-0.115 Y-0.076
G1 X-0.128 Y-0.046
G1 X-0.141 Y-0.015
G1 X-0.126 Y0.013
G1 X-0.116 Y0.04
G1 X-0.105 Y0.065
G1 X-0.093 Y0.093
G1 X-0.078 Y0.113
G1 X-0.059 Y0.128
G1 X-0.041 Y0.144
G1 X-0.021 Y0.16
M106 S0 
G0 X1.564 Y0 F0
M106 S255
G1 X0.247 Y0.044F300
G1 X0.057 Y-0.241
G1 X0.088 Y-0.163
G1 X0.113 Y-0.092
G1 X0.136 Y-0.031
G1 X0.084 Y0.01
G1 X0.077 Y0.03
G1 X0.07 Y0.05
G1 X0.064 Y0.071
G1 X0.09 Y0.18
G1 X0.03 Y0.219
G1 X-0.028 Y0.207
G1 X-0.083 Y0.168
G1 X-0.06 Y0.064
G1 X-0.067 Y0.046
G1 X-0.074 Y0.028
G1 X-0.082 Y0.009
G1 X-0.079 Y-0.009
G1 X-0.096 Y-0.028
G1 X0.028 Y0.29
G1 X0.039
G1 X0.151 Y0.023
G1 X0.134 Y0.083
G1 X0.055 Y0.062
G1 X0.04 Y0.077
G1 X0.023 Y0.093
G1 X0.008 Y0.107
G1 X-0.023 Y0.165
G1 X-0.069 Y0.135
G1 X-0.105 Y0.089
G1 X-0.132 Y0.03
G1 X-0.133 Y-0.03
G1 X-0.108 Y-0.091
G1 X-0.079 Y-0.151
G1 X-0.044 Y-0.212
G1 X-0.248 Y0.059
G1 X0.03 Y0.156
G1 X0.045 Y0.138
G1 X0.058 Y0.119
G1 X0.073 Y0.101
G1 X0.086 Y0.079
G1 X0.095 Y0.057
G1 X0.104 Y0.035
G1 X0.115 Y0.011
G1 X0.158 Y-0.024
G1 X0.146 Y-0.07
G1 X0.122 Y-0.112
G1 X0.09 Y-0.146
G1 X0.055 Y-0.168
G1 X0.018 Y-0.178
G1 X-0.017 Y-0.166
G1 X-0.053 Y-0.151
G1 X-0.087 Y-0.128
G1 X-0.12 Y-0.099
G1 X0.158 Y-0.084
G1 X0.119 Y-0.144
G1 X0.074 Y-0.194
G1 X0.025 Y-0.239
G1 X-0.012 Y-0.169
G1 X-0.036 Y-0.155
G1 X-0.06 Y-0.143
G1 X-0.084 Y-0.129
G1 X-0.103 Y-0.107
G1 X-0.115 Y-0.076
G1 X-0.128 Y-0.046
G1 X-0.14 Y-0.015
G1 X-0.127 Y0.013
G1 X-0.116 Y0.04
G1 X-0.104 Y0.065
G1 X-0.094 Y0.093
G1 X-0.078 Y0.113
G1 X-0.059 Y0.128
G1 X-0.041 Y0.144
G1 X-0.021 Y0.16
M106 S0 
G0 X1.564 Y0 F0
M106 S255
G1 X0.247 Y0.044F300
G1 X0.058 Y-0.241
G1 X0.087 Y-0.163
G1 X0.113 Y-0.092
G1 X0.136 Y-0.031
G1 X0.084 Y0.01
G1 X0.077 Y0.03
G1 X0.07 Y0.05
G1 X0.064 Y0.071
G1 X0.09 Y0.18
G1 X0.03 Y0.219
G1 X-0.028 Y0.207
G1 X-0.083 Y0.168
G1 X-0.06 Y0.064
G1 X-0.067 Y0.046
G1 X-0.074 Y0.028
G1 X-0.082 Y0.009
G1 X-0.079 Y-0.009
G1 X-0.096 Y-0.028
G1 X0.028 Y0.29
G1 X0.04
G1 X0.15 Y0.023
G1 X0.134 Y0.083
G1 X0.055 Y0.062
G1 X0.04 Y0.077
G1 X0.023 Y0.093
G1 X0.008 Y0.107
G1 X-0.023 Y0.165
G1 X-0.069 Y0.135
G1 X-0.105 Y0.089
G1 X-0.132 Y0.03
G1 X-0.132 Y-0.03
G1 X-0.109 Y-0.091
G1 X-0.079 Y-0.151
G1 X-0.044 Y-0.212
G1 X-0.247 Y0.059
G1 X0.029 Y0.156
G1 X0.045 Y0.138
G1 X0.058 Y0.119
G1 X0.074 Y0.101
G1 X0.085 Y0.079
G1 X0.095 Y0.057
G1 X0.105 Y0.035
G1 X0.114 Y0.011
G1 X0.158 Y-0.024
G1 X0.146 Y-0.07
G1 X0.122 Y-0.112
G1 X0.09 Y-0.146
G1 X0.055 Y-0.168
G1 X0.018 Y-0.178
G1 X-0.017 Y-0.166
G1 X-0.053 Y-0.151
G1 X-0.087 Y-0.128
G1 X-0.12 Y-0.099
G1 X0.159 Y-0.084
G1 X0.118 Y-0.144
G1 X0.074 Y-0.194
G1 X0.025 Y-0.239
G1 X-0.012 Y-0.169
G1 X-0.036 Y-0.155
G1 X-0.06 Y-0.143
G1 X-0.084 Y-0.129
G1 X-0.103 Y-0.107
G1 X-0.115 Y-0.076
G1 X-0.128 Y-0.046
G1 X-0.14 Y-0.015
G1 X-0.127 Y0.013
G1 X-0.116 Y0.04
G1 X-0.104 Y0.065
G1 X-0.093 Y0.093
G1 X-0.078 Y0.113
G1 X-0.06 Y0.128
G1 X-0.04 Y0.144
G1 X-0.022 Y0.16
M106 S0 
G0 X-4.186 Y-5.181 F0
M106 S255
G1 X-0.246 Y-0.026F300
G1 X-0.04 Y0.167
G1 X-0.053 Y0.115
G1 X-0.112 Y0.106
G1 X-0.135 Y0.035
G1 X-0.111 Y-0.022
G1 X-0.097 Y-0.066
G1 X-0.104 Y-0.14
G1 X-0.08 Y-0.191
G1 X-0.051 Y-0.265
G1 X-0.019 Y-0.356
G1 X0.099 Y0.158
G1 X0.12 Y0.111
G1 X0.132 Y0.066
G1 X0.138 Y0.022
G1 X0.119 Y-0.015
G1 X0.11 Y-0.046
G1 X0.101 Y-0.076
G1 X0.091 Y-0.106
G1 X0.076 Y-0.13
G1 X0.054 Y-0.148
G1 X0.033 Y-0.165
G1 X0.011 Y-0.184
G1 X-0.021 Y-0.244
G1 X-0.061 Y-0.226
G1 X-0.097 Y-0.191
G1 X-0.127 Y-0.141
G1 X-0.153 Y-0.086
G1 X-0.172 Y-0.029
G1 X-0.147 Y0.019
G1 X-0.133 Y0.057
G1 X-0.119 Y0.094
G1 X-0.105 Y0.133
G1 X-0.085 Y0.176
G1 X-0.061 Y0.225
G1 X-0.036 Y0.274
G1 X-0.013 Y0.324
G1 X0.014 Y0.362
G1 X0.04 Y0.31
G1 X0.068 Y0.256
G1 X0.094 Y0.203
G1 X0.102 Y0.135
G1 X0.119 Y0.096
G1 X0.135 Y0.058
G1 X0.151 Y0.019
G1 X0.113 Y-0.011
G1 X0.103 Y-0.034
G1 X0.092 Y-0.055
G1 X0.081 Y-0.078
G1 X0.068 Y-0.097
G1 X0.053 Y-0.114
G1 X0.038 Y-0.131
G1 X0.023 Y-0.148
M106 S0 
G0 X-1.009 Y-1.158 F0
M106 S255
G1 X0.013 Y-0.166F300
G1 X0.041 Y-0.16
G1 X0.065 Y-0.137
G1 X0.087 Y-0.1
G1 X0.1 Y-0.061
G1 X0.104 Y-0.02
G1 X0.076 Y0.01
G1 X0.07 Y0.032
G1 X0.064 Y0.053
G1 X0.059 Y0.073
G1 X0.085 Y0.199
G1 X0.028 Y0.259
G1 X-0.028 Y0.249
G1 X-0.083 Y0.19
G1 X-0.059 Y0.07
G1 X-0.067 Y0.05
G1 X-0.073 Y0.03
G1 X-0.081 Y0.01
G1 X-0.081 Y-0.01
G1 X-0.074 Y-0.03
G1 X-0.068 Y-0.05
G1 X-0.062 Y-0.07
G1 X-0.087 Y-0.186
G1 X-0.029 Y-0.235
M106 S0 
G0 X1.424 Y-0.869 F0
M106 S255
G1  Y0.375F300
G1 X0.281
G1  Y-0.375
G1 X-0.013 Y-0.187
G1 X-0.042 Y-0.148
G1 X-0.071 Y-0.112
G1 X-0.103 Y-0.084
G1 X-0.069 Y0.141
G1 X0.068 Y0.056
G1 X0.048 Y0.078
G1 X0.029 Y0.108
G1 X0.012 Y0.148
G1 X-0.14
M106 S0 
G0 X1.44 Y-0 F0
M106 S255
G1  Y0.642F300
G1 X-0.873
G1  Y0.302
G1 X0.919 Y1.74
G1 X0.202
G1  Y-1.74
G1 X0.271
G1  Y-0.302
G1 X-0.271
G1  Y-0.642
G1 X-0.248
M106 S0 
G0 X0 Y0.944 F0
M106 S255
G1  Y1.211F300
G1 X-0.63 Y-1.211
G1 X0.63
M106 S0 
G0 X0.772 Y0.379 F0
M106 S255
G1 X0.019 Y0.43F300
G1 X0.055 Y0.337
G1 X0.091 Y0.257
G1 X0.127 Y0.19
G1 X0.077 Y0.069
G1 X0.087 Y0.05
G1 X0.095 Y0.029
G1 X0.106 Y0.01
G1 X0.152 Y-0.022
G1 X0.132 Y-0.065
G1 X0.111 Y-0.106
G1 X0.091 Y-0.145
G1 X0.071 Y-0.182
G1 X0.054 Y-0.217
G1 X0.034 Y-0.276
G1 X0.011 Y-0.359
G1 X-0.018 Y-0.426
G1 X-0.055 Y-0.336
G1 X-0.091 Y-0.257
G1 X-0.126 Y-0.192
G1 X-0.078 Y-0.069
G1 X-0.086 Y-0.05
G1 X-0.097 Y-0.029
G1 X-0.105 Y-0.01
G1 X-0.138 Y0.017
G1 X-0.122 Y0.052
G1 X-0.107 Y0.087
G1 X-0.091 Y0.122
G1 X-0.087 Y0.194
G1 X-0.062 Y0.246
G1 X-0.037 Y0.3
G1 X-0.013 Y0.351
M106 S0 
G0 X0.254 Y0 F0
M106 S255
G1 X0.007 Y-0.302F300
G1 X0.022 Y-0.248
G1 X0.037 Y-0.192
G1 X0.05 Y-0.137
G1 X0.062 Y-0.096
G1 X0.068 Y-0.068
G1 X0.075 Y-0.042
G1 X0.082 Y-0.013
G1 X0.081 Y0.014
G1 X0.075 Y0.041
G1 X0.069 Y0.068
G1 X0.061 Y0.097
G1 X0.051 Y0.137
G1 X0.036 Y0.192
G1 X0.022 Y0.247
G1 X0.007 Y0.302
G1 X-0.007 Y0.304
G1 X-0.022 Y0.248
G1 X-0.036 Y0.192
G1 X-0.051 Y0.137
G1 X-0.062 Y0.095
G1 X-0.068 Y0.069
G1 X-0.076 Y0.04
G1 X-0.083 Y0.014
G1 X-0.081 Y-0.012
G1 X-0.072 Y-0.036
G1 X-0.064 Y-0.06
G1 X-0.055 Y-0.084
G1 X-0.056 Y-0.149
G1 X-0.04 Y-0.2
G1 X-0.024 Y-0.253
G1 X-0.008 Y-0.305
M106 S0 
G0 X1.31 Y0 F0
M106 S255
G1 X0.019 Y0.43F300
G1 X0.055 Y0.337
G1 X0.091 Y0.257
G1 X0.127 Y0.19
G1 X0.077 Y0.069
G1 X0.087 Y0.05
G1 X0.096 Y0.029
G1 X0.105 Y0.01
G1 X0.152 Y-0.022
G1 X0.132 Y-0.065
G1 X0.112 Y-0.106
G1 X0.09 Y-0.145
G1 X0.071 Y-0.182
G1 X0.054 Y-0.217
G1 X0.034 Y-0.276
G1 X0.011 Y-0.359
G1 X-0.018 Y-0.426
G1 X-0.055 Y-0.336
G1 X-0.09 Y-0.257
G1 X-0.127 Y-0.192
G1 X-0.077 Y-0.069
G1 X-0.087 Y-0.05
G1 X-0.096 Y-0.029
G1 X-0.106 Y-0.01
G1 X-0.138 Y0.017
G1 X-0.122 Y0.052
G1 X-0.107 Y0.087
G1 X-0.091 Y0.122
G1 X-0.087 Y0.194
G1 X-0.062 Y0.246
G1 X-0.037 Y0.3
G1 X-0.013 Y0.351
M106 S0 
G0 X0.254 Y0 F0
M106 S255
G1 X0.008 Y-0.302F300
G1 X0.021 Y-0.248
G1 X0.037 Y-0.192
G1 X0.05 Y-0.137
G1 X0.062 Y-0.096
G1 X0.068 Y-0.068
G1 X0.075 Y-0.042
G1 X0.082 Y-0.013
G1 X0.082 Y0.014
G1 X0.075 Y0.041
G1 X0.068 Y0.068
G1 X0.061 Y0.097
G1 X0.051 Y0.137
G1 X0.036 Y0.192
G1 X0.022 Y0.247
G1 X0.007 Y0.302
G1 X-0.007 Y0.304
G1 X-0.022 Y0.248
G1 X-0.036 Y0.192
G1 X-0.051 Y0.137
G1 X-0.061 Y0.095
G1 X-0.069 Y0.069
G1 X-0.076 Y0.04
G1 X-0.083 Y0.014
G1 X-0.081 Y-0.012
G1 X-0.072 Y-0.036
G1 X-0.064 Y-0.06
G1 X-0.055 Y-0.084
G1 X-0.056 Y-0.149
G1 X-0.04 Y-0.2
G1 X-0.024 Y-0.253
G1 X-0.008 Y-0.305
M106 S0 
G0 X-4.942 Y-7.823 F0
M106 S255
G1  Y0.642F300
G1 X-0.873
G1  Y0.302
G1 X0.918 Y1.74
G1 X0.202
G1  Y-1.74
G1 X0.272
G1  Y-0.302
G1 X-0.272
G1  Y-0.642
G1 X-0.247
M106 S0 
G0 X-0 Y0.944 F0
M106 S255
G1  Y1.211F300
G1 X-0.63 Y-1.211
G1 X0.63
M106 S0 
G0 X0.905 Y-0.944 F0
M106 S255
G1  Y0.375F300
G1 X0.281
G1  Y-0.375
G1 X-0.013 Y-0.187
G1 X-0.041 Y-0.148
G1 X-0.072 Y-0.112
G1 X-0.103 Y-0.084
G1 X-0.069 Y0.141
G1 X0.068 Y0.056
G1 X0.048 Y0.078
G1 X0.029 Y0.108
G1 X0.012 Y0.148
G1 X-0.14
M106 S0 
G0 X1.441 Y-0 F0
M106 S255
G1  Y0.642F300
G1 X-0.874
G1  Y0.302
G1 X0.919 Y1.74
G1 X0.202
G1  Y-1.74
G1 X0.272
G1  Y-0.302
G1 X-0.272
G1  Y-0.642
G1 X-0.247
M106 S0 
G0 X-0 Y0.944 F0
M106 S255
G1  Y1.211F300
G1 X-0.631 Y-1.211
G1 X0.631
M106 S0 
G0 X2.054 Y1.083 F0
M106 S255
G1 X-0.246 Y-0.026F300
G1 X-0.04 Y0.167
G1 X-0.053 Y0.115
G1 X-0.112 Y0.106
G1 X-0.135 Y0.035
G1 X-0.111 Y-0.022
G1 X-0.097 Y-0.066
G1 X-0.104 Y-0.14
G1 X-0.08 Y-0.191
G1 X-0.051 Y-0.265
G1 X-0.019 Y-0.356
G1 X0.099 Y0.158
G1 X0.119 Y0.111
G1 X0.133 Y0.066
G1 X0.138 Y0.022
G1 X0.119 Y-0.015
G1 X0.11 Y-0.046
G1 X0.1 Y-0.076
G1 X0.092 Y-0.106
G1 X0.076 Y-0.13
G1 X0.054 Y-0.148
G1 X0.033 Y-0.165
G1 X0.011 Y-0.184
G1 X-0.021 Y-0.244
G1 X-0.061 Y-0.226
G1 X-0.097 Y-0.191
G1 X-0.128 Y-0.141
G1 X-0.152 Y-0.086
G1 X-0.172 Y-0.029
G1 X-0.147 Y0.019
G1 X-0.133 Y0.057
G1 X-0.119 Y0.094
G1 X-0.105 Y0.133
G1 X-0.085 Y0.176
G1 X-0.061 Y0.225
G1 X-0.036 Y0.274
G1 X-0.013 Y0.324
G1 X0.014 Y0.362
G1 X0.04 Y0.31
G1 X0.068 Y0.256
G1 X0.094 Y0.203
G1 X0.102 Y0.135
G1 X0.119 Y0.096
G1 X0.135 Y0.058
G1 X0.151 Y0.019
G1 X0.113 Y-0.011
G1 X0.103 Y-0.034
G1 X0.092 Y-0.055
G1 X0.081 Y-0.078
G1 X0.068 Y-0.097
G1 X0.053 Y-0.114
G1 X0.038 Y-0.131
G1 X0.023 Y-0.148
M106 S0 
G0 X-1.009 Y-1.158 F0
M106 S255
G1 X0.013 Y-0.166F300
G1 X0.041 Y-0.16
G1 X0.065 Y-0.137
G1 X0.087 Y-0.1
G1 X0.099 Y-0.061
G1 X0.105 Y-0.02
G1 X0.076 Y0.01
G1 X0.07 Y0.032
G1 X0.064 Y0.053
G1 X0.059 Y0.073
G1 X0.085 Y0.199
G1 X0.028 Y0.259
G1 X-0.028 Y0.249
G1 X-0.083 Y0.19
G1 X-0.059 Y0.07
G1 X-0.067 Y0.05
G1 X-0.074 Y0.03
G1 X-0.08 Y0.01
G1 X-0.081 Y-0.01
G1 X-0.074 Y-0.03
G1 X-0.068 Y-0.05
G1 X-0.062 Y-0.07
G1 X-0.087 Y-0.186
G1 X-0.029 Y-0.235
M106 S0 
G0 X1.307 Y1.463 F0
M106 S255
G1  Y0.317F300
G1 X1.303
G1  Y-0.256
G1 X-0.191 Y-0.318
G1 X-0.19 Y-0.407
G1 X-0.167 Y-0.459
G1 X-0.125 Y-0.472
G1 X-0.06 Y-0.352
G1 X-0.034 Y-0.385
G1 X-0.255
G1 X0.026 Y0.349
G1 X0.068 Y0.416
G1 X0.109 Y0.441
G1 X0.147 Y0.424
G1 X0.172 Y0.384
G1 X0.183 Y0.318
G1 X-0.986
M106 S0 
G0 X-4.191 Y-8.516 F0
M106 S255
G1  Y-0.316F300
G1 X-1.331
G1 X0.006 Y0.116
G1 X0.023 Y0.112
G1 X0.066 Y0.18
G1 X0.097 Y0.178
G1 X0.136 Y0.189
G1 X0.187 Y0.217
G1 X0.151 Y0.17
G1 X0.124 Y0.152
G1 X0.098 Y0.132
G1 X0.071 Y0.115
G1 X0.086 Y0.203
G1 X0.029 Y0.193
G1 X-0.026 Y0.181
G1 X-0.079 Y0.149
G1 X-0.121 Y0.101
G1 X-0.153 Y0.034
G1 X-0.085 Y-0.009
G1 X-0.076 Y-0.027
G1 X-0.067 Y-0.044
G1 X-0.058 Y-0.063
G1 X-0.08 Y-0.17
G1 X-0.028 Y-0.225
G1 X-0.254 Y0.035
G1 X0.022 Y0.178
G1 X0.04 Y0.155
G1 X0.058 Y0.134
G1 X0.076 Y0.11
G1 X0.092 Y0.087
G1 X0.108 Y0.062
G1 X0.121 Y0.037
G1 X0.136 Y0.013
G1 X0.138 Y-0.013
G1 X0.122 Y-0.041
G1 X0.107 Y-0.067
G1 X0.092 Y-0.093
G1 X0.074 Y-0.114
G1 X0.053 Y-0.126
G1 X0.031 Y-0.139
G1 X0.011 Y-0.152
G1 X-0.012 Y-0.16
G1 X-0.038 Y-0.157
G1 X-0.065 Y-0.16
G1 X-0.099 Y-0.168
G1 X-0.152 Y-0.204
G1 X-0.229 Y-0.268
G1 X-0.182 Y-0.209
G1 X-0.062 Y-0.075
G1 X-0.041 Y-0.054
G1 X-0.058 Y-0.089
G1 X-0.047 Y-0.09
G1 X0.988
M106 S0 
G0 X0.398 Y-0.316 F0
M106 S255
G1  Y0.375F300
G1 X0.281
G1  Y-0.375
G1 X-0.013 Y-0.187
G1 X-0.041 Y-0.148
G1 X-0.072 Y-0.112
G1 X-0.103 Y-0.084
G1 X-0.069 Y0.141
G1 X0.068 Y0.056
G1 X0.048 Y0.078
G1 X0.029 Y0.108
G1 X0.012 Y0.148
G1 X-0.14
M106 S0 
G0 X0.648 Y0.703 F0
M106 S255
G1 X0.26 Y0.029F300
G1 X0.048 Y-0.221
G1 X0.086 Y-0.159
G1 X0.115 Y-0.095
G1 X0.138 Y-0.032
G1 X0.086 Y0.011
G1 X0.079 Y0.034
G1 X0.072 Y0.056
G1 X0.065 Y0.078
G1 X0.093 Y0.209
G1 X0.031 Y0.267
G1 X-0.03 Y0.253
G1 X-0.089 Y0.192
G1 X-0.064 Y0.072
G1 X-0.073 Y0.05
G1 X-0.083 Y0.031
G1 X-0.091 Y0.01
G1 X-0.114 Y-0.018
G1 X-0.102 Y-0.054
G1 X-0.086 Y-0.083
G1 X-0.065 Y-0.105
G1 X-0.232 Y0.04
G1 X0.195 Y1.379
G1 X1.001
G1  Y-0.315
G1 X-0.803
G1 X-0.109 Y-0.721
G1 X0.092 Y0.074
G1 X0.094 Y0.052
G1 X0.096 Y0.032
G1 X0.099 Y0.01
G1 X0.126 Y-0.015
G1 X0.117 Y-0.046
G1 X0.106 Y-0.076
G1 X0.096 Y-0.106
G1 X0.079 Y-0.131
G1 X0.057 Y-0.147
G1 X0.034 Y-0.166
G1 X0.011 Y-0.182
G1 X-0.01 Y-0.176
G1 X-0.03 Y-0.164
G1 X-0.05 Y-0.151
G1 X-0.069 Y-0.139
G1 X-0.106 Y-0.143
G1 X-0.123 Y-0.102
G1 X-0.141 Y-0.061
G1 X-0.159 Y-0.02
G1 X-0.131 Y0.013
G1 X-0.118 Y0.038
G1 X-0.106 Y0.064
G1 X-0.093 Y0.09
G1 X-0.078 Y0.111
G1 X-0.059 Y0.127
G1 X-0.04 Y0.145
G1 X-0.022 Y0.161
M106 S0 
G0 X1.566 Y0.005 F0
M106 S255
G1 X0.247 Y0.044F300
G1 X0.057 Y-0.241
G1 X0.088 Y-0.163
G1 X0.113 Y-0.092
G1 X0.136 Y-0.031
G1 X0.084 Y0.01
G1 X0.077 Y0.03
G1 X0.07 Y0.05
G1 X0.064 Y0.071
G1 X0.09 Y0.18
G1 X0.03 Y0.219
G1 X-0.028 Y0.207
G1 X-0.083 Y0.168
G1 X-0.06 Y0.064
G1 X-0.067 Y0.046
G1 X-0.074 Y0.028
G1 X-0.082 Y0.009
G1 X-0.079 Y-0.009
G1 X-0.096 Y-0.028
G1 X0.028 Y0.29
G1 X0.039
G1 X0.151 Y0.023
G1 X0.134 Y0.083
G1 X0.055 Y0.062
G1 X0.04 Y0.077
G1 X0.023 Y0.093
G1 X0.008 Y0.107
G1 X-0.023 Y0.165
G1 X-0.069 Y0.135
G1 X-0.105 Y0.089
G1 X-0.132 Y0.03
G1 X-0.133 Y-0.03
G1 X-0.108 Y-0.091
G1 X-0.079 Y-0.151
G1 X-0.044 Y-0.212
G1 X-0.248 Y0.059
G1 X0.03 Y0.156
G1 X0.045 Y0.138
G1 X0.058 Y0.119
G1 X0.073 Y0.101
G1 X0.086 Y0.079
G1 X0.095 Y0.057
G1 X0.104 Y0.034
G1 X0.115 Y0.012
G1 X0.158 Y-0.024
G1 X0.146 Y-0.07
G1 X0.122 Y-0.112
G1 X0.09 Y-0.146
G1 X0.055 Y-0.168
G1 X0.018 Y-0.178
G1 X-0.017 Y-0.166
G1 X-0.053 Y-0.151
G1 X-0.087 Y-0.128
G1 X-0.12 Y-0.099
G1 X0.158 Y-0.084
G1 X0.119 Y-0.144
G1 X0.074 Y-0.194
G1 X0.025 Y-0.239
G1 X-0.012 Y-0.169
G1 X-0.036 Y-0.155
G1 X-0.06 Y-0.143
G1 X-0.084 Y-0.129
G1 X-0.103 Y-0.107
G1 X-0.115 Y-0.076
G1 X-0.128 Y-0.046
G1 X-0.14 Y-0.015
G1 X-0.127 Y0.013
G1 X-0.116 Y0.04
G1 X-0.104 Y0.065
G1 X-0.094 Y0.093
G1 X-0.078 Y0.113
G1 X-0.059 Y0.128
G1 X-0.041 Y0.144
G1 X-0.021 Y0.16
M106 S0 
G0 X1.564 Y0 F0
M106 S255
G1 X0.247 Y0.044F300
G1 X0.058 Y-0.241
G1 X0.087 Y-0.163
G1 X0.113 Y-0.092
G1 X0.136 Y-0.031
G1 X0.084 Y0.01
G1 X0.077 Y0.03
G1 X0.07 Y0.05
G1 X0.064 Y0.071
G1 X0.09 Y0.18
G1 X0.03 Y0.219
G1 X-0.028 Y0.207
G1 X-0.083 Y0.168
G1 X-0.06 Y0.064
G1 X-0.067 Y0.046
G1 X-0.074 Y0.028
G1 X-0.082 Y0.009
G1 X-0.079 Y-0.009
G1 X-0.096 Y-0.028
G1 X0.028 Y0.29
G1 X0.04
G1 X0.15 Y0.023
G1 X0.134 Y0.083
G1 X0.055 Y0.062
G1 X0.04 Y0.077
G1 X0.023 Y0.093
G1 X0.008 Y0.107
G1 X-0.023 Y0.165
G1 X-0.069 Y0.135
G1 X-0.105 Y0.089
G1 X-0.132 Y0.03
G1 X-0.132 Y-0.03
G1 X-0.109 Y-0.091
G1 X-0.079 Y-0.151
G1 X-0.044 Y-0.212
G1 X-0.247 Y0.059
G1 X0.029 Y0.156
G1 X0.045 Y0.138
G1 X0.058 Y0.119
G1 X0.074 Y0.101
G1 X0.085 Y0.079
G1 X0.095 Y0.057
G1 X0.105 Y0.034
G1 X0.114 Y0.012
G1 X0.158 Y-0.024
G1 X0.146 Y-0.07
G1 X0.122 Y-0.112
G1 X0.09 Y-0.146
G1 X0.055 Y-0.168
G1 X0.018 Y-0.178
G1 X-0.017 Y-0.166
G1 X-0.053 Y-0.151
G1 X-0.087 Y-0.128
G1 X-0.12 Y-0.099
G1 X0.159 Y-0.084
G1 X0.118 Y-0.144
G1 X0.074 Y-0.194
G1 X0.025 Y-0.239
G1 X-0.012 Y-0.169
G1 X-0.036 Y-0.155
G1 X-0.06 Y-0.143
G1 X-0.084 Y-0.129
G1 X-0.103 Y-0.107
G1 X-0.115 Y-0.076
G1 X-0.128 Y-0.046
G1 X-0.14 Y-0.015
G1 X-0.127 Y0.013
G1 X-0.116 Y0.04
G1 X-0.104 Y0.065
G1 X-0.093 Y0.093
G1 X-0.078 Y0.113
G1 X-0.06 Y0.128
G1 X-0.04 Y0.144
G1 X-0.022 Y0.16
M106 S0 
G0 X-1.84 Y-5.181 F0
M106 S255
G1 X-0.246 Y-0.026F300
G1 X-0.04 Y0.167
G1 X-0.054 Y0.115
G1 X-0.111 Y0.106
G1 X-0.136 Y0.035
G1 X-0.111 Y-0.022
G1 X-0.096 Y-0.066
G1 X-0.104 Y-0.14
G1 X-0.08 Y-0.191
G1 X-0.051 Y-0.265
G1 X-0.019 Y-0.356
G1 X0.099 Y0.158
G1 X0.119 Y0.111
G1 X0.132 Y0.066
G1 X0.139 Y0.022
G1 X0.119 Y-0.015
G1 X0.11 Y-0.046
G1 X0.1 Y-0.076
G1 X0.092 Y-0.106
G1 X0.076 Y-0.13
G1 X0.054 Y-0.148
G1 X0.032 Y-0.165
G1 X0.011 Y-0.184
G1 X-0.02 Y-0.244
G1 X-0.061 Y-0.226
G1 X-0.097 Y-0.191
G1 X-0.128 Y-0.141
G1 X-0.152 Y-0.086
G1 X-0.172 Y-0.029
G1 X-0.147 Y0.019
G1 X-0.133 Y0.057
G1 X-0.119 Y0.094
G1 X-0.105 Y0.133
G1 X-0.085 Y0.176
G1 X-0.061 Y0.225
G1 X-0.037 Y0.274
G1 X-0.012 Y0.324
G1 X0.013 Y0.362
G1 X0.041 Y0.31
G1 X0.067 Y0.256
G1 X0.095 Y0.203
G1 X0.102 Y0.135
G1 X0.118 Y0.096
G1 X0.135 Y0.058
G1 X0.151 Y0.019
G1 X0.114 Y-0.011
G1 X0.102 Y-0.034
G1 X0.092 Y-0.055
G1 X0.082 Y-0.078
G1 X0.068 Y-0.097
G1 X0.053 Y-0.114
G1 X0.038 Y-0.131
G1 X0.023 Y-0.148
M106 S0 
G0 X-1.01 Y-1.158 F0
M106 S255
G1 X0.014 Y-0.166F300
G1 X0.041 Y-0.16
G1 X0.065 Y-0.137
G1 X0.086 Y-0.1
G1 X0.1 Y-0.061
G1 X0.105 Y-0.02
G1 X0.075 Y0.01
G1 X0.07 Y0.032
G1 X0.065 Y0.053
G1 X0.059 Y0.073
G1 X0.085 Y0.199
G1 X0.028 Y0.259
G1 X-0.028 Y0.249
G1 X-0.084 Y0.19
G1 X-0.059 Y0.07
G1 X-0.066 Y0.05
G1 X-0.074 Y0.03
G1 X-0.081 Y0.01
G1 X-0.08 Y-0.01
G1 X-0.075 Y-0.03
G1 X-0.067 Y-0.05
G1 X-0.062 Y-0.07
G1 X-0.088 Y-0.186
G1 X-0.029 Y-0.235
M106 S0 
G0 X1.291 Y0.454 F0
M106 S255
G1 X0.019 Y0.43F300
G1 X0.055 Y0.337
G1 X0.091 Y0.257
G1 X0.127 Y0.19
G1 X0.077 Y0.069
G1 X0.087 Y0.05
G1 X0.095 Y0.029
G1 X0.106 Y0.01
G1 X0.152 Y-0.022
G1 X0.132 Y-0.065
G1 X0.111 Y-0.106
G1 X0.091 Y-0.145
G1 X0.071 Y-0.182
G1 X0.054 Y-0.217
G1 X0.034 Y-0.276
G1 X0.011 Y-0.359
G1 X-0.018 Y-0.426
G1 X-0.055 Y-0.336
G1 X-0.091 Y-0.257
G1 X-0.126 Y-0.192
G1 X-0.078 Y-0.069
G1 X-0.086 Y-0.05
G1 X-0.097 Y-0.029
G1 X-0.105 Y-0.01
G1 X-0.138 Y0.017
G1 X-0.122 Y0.052
G1 X-0.107 Y0.087
G1 X-0.091 Y0.122
G1 X-0.087 Y0.194
G1 X-0.062 Y0.246
G1 X-0.037 Y0.3
G1 X-0.013 Y0.351
M106 S0 
G0 X0.254 Y0 F0
M106 S255
G1 X0.007 Y-0.302F300
G1 X0.022 Y-0.248
G1 X0.037 Y-0.192
G1 X0.05 Y-0.137
G1 X0.062 Y-0.096
G1 X0.068 Y-0.068
G1 X0.075 Y-0.042
G1 X0.082 Y-0.013
G1 X0.081 Y0.014
G1 X0.075 Y0.041
G1 X0.069 Y0.068
G1 X0.061 Y0.097
G1 X0.051 Y0.137
G1 X0.036 Y0.192
G1 X0.022 Y0.247
G1 X0.007 Y0.302
G1 X-0.007 Y0.304
G1 X-0.022 Y0.248
G1 X-0.036 Y0.192
G1 X-0.051 Y0.137
G1 X-0.062 Y0.095
G1 X-0.068 Y0.069
G1 X-0.076 Y0.04
G1 X-0.083 Y0.014
G1 X-0.081 Y-0.012
G1 X-0.072 Y-0.036
G1 X-0.064 Y-0.06
G1 X-0.055 Y-0.084
G1 X-0.056 Y-0.149
G1 X-0.04 Y-0.2
G1 X-0.024 Y-0.253
G1 X-0.008 Y-0.305
M106 S0 
G0 X1.31 Y0 F0
M106 S255
G1 X0.019 Y0.43F300
G1 X0.055 Y0.337
G1 X0.091 Y0.257
G1 X0.127 Y0.19
G1 X0.077 Y0.069
G1 X0.087 Y0.05
G1 X0.096 Y0.029
G1 X0.105 Y0.01
G1 X0.152 Y-0.022
G1 X0.132 Y-0.065
G1 X0.112 Y-0.106
G1 X0.09 Y-0.145
G1 X0.071 Y-0.182
G1 X0.054 Y-0.217
G1 X0.034 Y-0.276
G1 X0.011 Y-0.359
G1 X-0.018 Y-0.426
G1 X-0.055 Y-0.336
G1 X-0.09 Y-0.257
G1 X-0.127 Y-0.192
G1 X-0.077 Y-0.069
G1 X-0.087 Y-0.05
G1 X-0.096 Y-0.029
G1 X-0.106 Y-0.01
G1 X-0.138 Y0.017
G1 X-0.122 Y0.052
G1 X-0.107 Y0.087
G1 X-0.091 Y0.122
G1 X-0.087 Y0.194
G1 X-0.062 Y0.246
G1 X-0.037 Y0.3
G1 X-0.013 Y0.351
M106 S0 
G0 X0.254 Y0 F0
M106 S255
G1 X0.008 Y-0.302F300
G1 X0.021 Y-0.248
G1 X0.037 Y-0.192
G1 X0.05 Y-0.137
G1 X0.062 Y-0.096
G1 X0.068 Y-0.068
G1 X0.075 Y-0.042
G1 X0.082 Y-0.013
G1 X0.082 Y0.014
G1 X0.075 Y0.041
G1 X0.068 Y0.068
G1 X0.061 Y0.097
G1 X0.051 Y0.137
G1 X0.036 Y0.192
G1 X0.022 Y0.247
G1 X0.007 Y0.302
G1 X-0.007 Y0.304
G1 X-0.022 Y0.248
G1 X-0.036 Y0.192
G1 X-0.051 Y0.137
G1 X-0.061 Y0.095
G1 X-0.069 Y0.069
G1 X-0.076 Y0.04
G1 X-0.083 Y0.014
G1 X-0.081 Y-0.012
G1 X-0.072 Y-0.036
G1 X-0.064 Y-0.06
G1 X-0.055 Y-0.084
G1 X-0.056 Y-0.149
G1 X-0.04 Y-0.2
G1 X-0.024 Y-0.253
G1 X-0.008 Y-0.305
M106 S0 
G0 X65.404 Y-8.834 F0
M106 S255
G1  Y-0.248F300
G1 X-2.1
G1 X0.113 Y-0.103
G1 X0.114 Y-0.131
G1 X0.099 Y-0.137
G1 X0.071 Y-0.123
G1 X-0.319
G1 X-0.143 Y0.194
G1 X-0.171 Y0.169
G1 X-0.183 Y0.132
G1 X-0.176 Y0.087
G1  Y0.16
G1 X2.695
M106 S0 
G0 X-1.324 Y0.633 F0
M106 S255
G1 X-0.43 Y0.018F300
G1 X-0.336 Y0.055
G1 X-0.257 Y0.091
G1 X-0.191 Y0.128
G1 X-0.069 Y0.077
G1 X-0.049 Y0.086
G1 X-0.03 Y0.096
G1 X-0.009 Y0.105
G1 X0.021 Y0.152
G1 X0.066 Y0.132
G1 X0.106 Y0.112
G1 X0.144 Y0.09
G1 X0.182 Y0.071
G1 X0.218 Y0.054
G1 X0.276 Y0.034
G1 X0.358 Y0.012
G1 X0.427 Y-0.019
G1 X0.336 Y-0.054
G1 X0.257 Y-0.091
G1 X0.191 Y-0.127
G1 X0.07 Y-0.077
G1 X0.049 Y-0.087
G1 X0.03 Y-0.096
G1 X0.01 Y-0.106
G1 X-0.018 Y-0.138
G1 X-0.052 Y-0.122
G1 X-0.087 Y-0.106
G1 X-0.122 Y-0.091
G1 X-0.193 Y-0.087
G1 X-0.247 Y-0.063
G1 X-0.299 Y-0.037
G1 X-0.352 Y-0.012
M106 S0 
G0 X0 Y0.254 F0
M106 S255
G1 X0.303 Y0.007F300
G1 X0.248 Y0.022
G1 X0.192 Y0.036
G1 X0.137 Y0.051
G1 X0.096 Y0.061
G1 X0.068 Y0.068
G1 X0.041 Y0.075
G1 X0.014 Y0.082
G1 X-0.014 Y0.082
G1 X-0.041 Y0.075
G1 X-0.069 Y0.068
G1 X-0.096 Y0.061
G1 X-0.137 Y0.051
G1 X-0.193 Y0.036
G1 X-0.247 Y0.022
G1 X-0.302 Y0.007
G1 X-0.304 Y-0.007
G1 X-0.248 Y-0.022
G1 X-0.192 Y-0.036
G1 X-0.137 Y-0.051
G1 X-0.095 Y-0.061
G1 X-0.068 Y-0.069
G1 X-0.041 Y-0.076
G1 X-0.014 Y-0.083
G1 X0.012 Y-0.08
G1 X0.037 Y-0.073
G1 X0.06 Y-0.063
G1 X0.084 Y-0.056
G1 X0.148 Y-0.055
G1 X0.201 Y-0.04
G1 X0.253 Y-0.024
G1 X0.304 Y-0.008
M106 S0 
G0 X0 Y1.31 F0
M106 S255
G1 X-0.43 Y0.018F300
G1 X-0.336 Y0.055
G1 X-0.257 Y0.092
G1 X-0.191 Y0.127
G1 X-0.069 Y0.077
G1 X-0.049 Y0.086
G1 X-0.03 Y0.096
G1 X-0.009 Y0.105
G1 X0.021 Y0.152
G1 X0.066 Y0.133
G1 X0.106 Y0.111
G1 X0.144 Y0.09
G1 X0.182 Y0.072
G1 X0.218 Y0.053
G1 X0.276 Y0.034
G1 X0.358 Y0.012
G1 X0.427 Y-0.018
G1 X0.336 Y-0.055
G1 X0.257 Y-0.091
G1 X0.191 Y-0.127
G1 X0.07 Y-0.077
G1 X0.049 Y-0.087
G1 X0.03 Y-0.096
G1 X0.01 Y-0.106
G1 X-0.018 Y-0.137
G1 X-0.052 Y-0.123
G1 X-0.087 Y-0.106
G1 X-0.122 Y-0.091
G1 X-0.193 Y-0.087
G1 X-0.247 Y-0.062
G1 X-0.299 Y-0.038
G1 X-0.352 Y-0.012
M106 S0 
G0 X0 Y0.254 F0
M106 S255
G1 X0.303 Y0.007F300
G1 X0.248 Y0.022
G1 X0.192 Y0.036
G1 X0.137 Y0.051
G1 X0.096 Y0.061
G1 X0.068 Y0.069
G1 X0.041 Y0.075
G1 X0.014 Y0.081
G1 X-0.014 Y0.082
G1 X-0.041 Y0.075
G1 X-0.069 Y0.068
G1 X-0.096 Y0.062
G1 X-0.137 Y0.05
G1 X-0.193 Y0.037
G1 X-0.247 Y0.021
G1 X-0.302 Y0.008
G1 X-0.304 Y-0.008
G1 X-0.248 Y-0.021
G1 X-0.192 Y-0.037
G1 X-0.137 Y-0.05
G1 X-0.095 Y-0.062
G1 X-0.068 Y-0.069
G1 X-0.041 Y-0.076
G1 X-0.014 Y-0.082
G1 X0.012 Y-0.081
G1 X0.037 Y-0.073
G1 X0.06 Y-0.063
G1 X0.084 Y-0.055
G1 X0.148 Y-0.056
G1 X0.201 Y-0.04
G1 X0.253 Y-0.024
G1 X0.304 Y-0.008
M106 S0 
G0 X1.324 Y1.449 F0
M106 S255
G1 X-0.375F300
G1  Y0.281
G1 X0.375
G1  Y-0.281
M106 S0 
G0 X-1.324 Y0.642 F0
M106 S255
G1 X-0.43 Y0.019F300
G1 X-0.336 Y0.055
G1 X-0.257 Y0.091
G1 X-0.191 Y0.127
G1 X-0.069 Y0.077
G1 X-0.049 Y0.087
G1 X-0.03 Y0.096
G1 X-0.009 Y0.105
G1 X0.021 Y0.152
G1 X0.066 Y0.132
G1 X0.106 Y0.112
G1 X0.144 Y0.09
G1 X0.182 Y0.071
G1 X0.218 Y0.054
G1 X0.276 Y0.034
G1 X0.358 Y0.011
G1 X0.427 Y-0.018
G1 X0.336 Y-0.054
G1 X0.257 Y-0.091
G1 X0.191 Y-0.127
G1 X0.07 Y-0.077
G1 X0.049 Y-0.087
G1 X0.03 Y-0.096
G1 X0.01 Y-0.106
G1 X-0.018 Y-0.138
G1 X-0.052 Y-0.122
G1 X-0.087 Y-0.107
G1 X-0.122 Y-0.09
G1 X-0.193 Y-0.088
G1 X-0.247 Y-0.062
G1 X-0.299 Y-0.037
G1 X-0.352 Y-0.013
M106 S0 
G0 X0 Y0.254 F0
M106 S255
G1 X0.303 Y0.008F300
G1 X0.248 Y0.022
G1 X0.192 Y0.036
G1 X0.137 Y0.051
G1 X0.096 Y0.061
G1 X0.068 Y0.068
G1 X0.041 Y0.075
G1 X0.014 Y0.082
G1 X-0.014 Y0.082
G1 X-0.041 Y0.075
G1 X-0.069 Y0.068
G1 X-0.096 Y0.061
G1 X-0.137 Y0.051
G1 X-0.193 Y0.036
G1 X-0.247 Y0.022
G1 X-0.302 Y0.007
G1 X-0.304 Y-0.007
G1 X-0.248 Y-0.022
G1 X-0.192 Y-0.036
G1 X-0.137 Y-0.051
G1 X-0.095 Y-0.061
G1 X-0.068 Y-0.069
G1 X-0.041 Y-0.076
G1 X-0.014 Y-0.083
G1 X0.012 Y-0.081
G1 X0.037 Y-0.072
G1 X0.06 Y-0.064
G1 X0.084 Y-0.055
G1 X0.148 Y-0.056
G1 X0.201 Y-0.04
G1 X0.253 Y-0.024
G1 X0.304 Y-0.008
M106 S0 
G0 X-5.797 Y-4.126 F0
M106 S255
G1 X-0.029 Y0.237F300
G1 X0.193 Y0.044
G1 X0.131 Y0.072
G1 X0.076 Y0.097
G1 X0.025 Y0.121
G1 X-0.018 Y0.107
G1 X-0.052 Y0.093
G1 X-0.081 Y0.078
G1 X-0.105 Y0.063
G1 X-0.136 Y0.05
G1 X-0.178 Y0.042
G1 X-0.199 Y0.027
G1 X-0.204 Y0.01
G1 X-0.065
G1 X0.142 Y-0.089
G1 X0.113 Y-0.115
G1 X0.073 Y-0.134
G1 X0.025 Y-0.144
G1 X-0.015 Y-0.12
G1 X-0.046 Y-0.111
G1 X-0.075 Y-0.101
G1 X-0.106 Y-0.091
G1 X-0.13 Y-0.076
G1 X-0.15 Y-0.054
G1 X-0.169 Y-0.033
G1 X-0.188 Y-0.01
G1 X-0.194 Y0.011
G1 X-0.174 Y0.034
G1 X-0.155 Y0.056
G1 X-0.134 Y0.079
G1 X-0.109 Y0.096
G1 X-0.078 Y0.108
G1 X-0.047 Y0.119
G1 X-0.015 Y0.13
G1 X0.035 Y0.188
G1 X0.106 Y0.171
G1 X0.171 Y0.143
G1 X0.231 Y0.104
G1 X0.145 Y0.037
G1 X0.174 Y0.026
G1 X0.203 Y0.016
G1 X0.233 Y0.006
G1 X0.244 Y-0.006
G1 X0.218 Y-0.015
G1 X0.192 Y-0.027
G1 X0.165 Y-0.036
G1 X0.269 Y-0.104
G1 X0.195 Y-0.145
G1 X0.07 Y-0.087
G1 X0.05 Y-0.093
G1 X0.03 Y-0.101
G1 X0.01 Y-0.107
G1 X-0.011 Y-0.113
G1 X-0.033 Y-0.102
G1 X-0.055 Y-0.091
G1 X-0.076 Y-0.08
G1 X-0.096 Y-0.068
G1 X-0.114 Y-0.052
G1 X-0.132 Y-0.038
G1 X-0.15 Y-0.022
M106 S0 
G0 X-1.184 Y1.012 F0
M106 S255
G1 X-0.255 Y-0.028F300
G1 X-0.196 Y-0.085
G1 X-0.073 Y-0.06
G1 X-0.052 Y-0.065
G1 X-0.031 Y-0.071
G1 X-0.011 Y-0.077
G1 X0.012 Y-0.08
G1 X0.033 Y-0.074
G1 X0.056 Y-0.069
G1 X0.079 Y-0.064
G1 X0.206 Y-0.092
G1 X0.259 Y-0.03
G1 X0.232 Y0.029
G1 X0.185 Y0.087
G1 X0.07 Y0.061
G1 X0.05 Y0.068
G1 X0.03 Y0.075
G1 X0.01 Y0.082
G1 X-0.01 Y0.082
G1 X-0.03 Y0.074
G1 X-0.05 Y0.067
G1 X-0.07 Y0.059
G1 X-0.192 Y0.083
G1 X-0.252 Y0.028
M106 S0 
G0 X0.481 Y0.515 F0
M106 S255
G1 X-0.43 Y0.018F300
G1 X-0.336 Y0.055
G1 X-0.257 Y0.092
G1 X-0.191 Y0.127
G1 X-0.069 Y0.077
G1 X-0.049 Y0.086
G1 X-0.03 Y0.096
G1 X-0.009 Y0.105
G1 X0.021 Y0.152
G1 X0.066 Y0.133
G1 X0.106 Y0.111
G1 X0.144 Y0.09
G1 X0.182 Y0.072
G1 X0.218 Y0.053
G1 X0.276 Y0.034
G1 X0.358 Y0.012
G1 X0.427 Y-0.018
G1 X0.336 Y-0.055
G1 X0.257 Y-0.091
G1 X0.191 Y-0.127
G1 X0.07 Y-0.077
G1 X0.049 Y-0.087
G1 X0.03 Y-0.096
G1 X0.01 Y-0.106
G1 X-0.018 Y-0.137
G1 X-0.052 Y-0.123
G1 X-0.087 Y-0.106
G1 X-0.122 Y-0.091
G1 X-0.193 Y-0.087
G1 X-0.247 Y-0.062
G1 X-0.299 Y-0.038
G1 X-0.352 Y-0.012
M106 S0 
G0 X0 Y0.254 F0
M106 S255
G1 X0.303 Y0.007F300
G1 X0.248 Y0.022
G1 X0.192 Y0.036
G1 X0.137 Y0.051
G1 X0.096 Y0.061
G1 X0.068 Y0.069
G1 X0.041 Y0.075
G1 X0.014 Y0.081
G1 X-0.014 Y0.082
G1 X-0.041 Y0.075
G1 X-0.069 Y0.068
G1 X-0.096 Y0.062
G1 X-0.137 Y0.05
G1 X-0.193 Y0.037
G1 X-0.247 Y0.021
G1 X-0.302 Y0.008
G1 X-0.304 Y-0.008
G1 X-0.248 Y-0.021
G1 X-0.192 Y-0.037
G1 X-0.137 Y-0.05
G1 X-0.095 Y-0.062
G1 X-0.068 Y-0.069
G1 X-0.041 Y-0.076
G1 X-0.014 Y-0.082
G1 X0.012 Y-0.081
G1 X0.037 Y-0.073
G1 X0.06 Y-0.063
G1 X0.084 Y-0.055
G1 X0.148 Y-0.056
G1 X0.201 Y-0.04
G1 X0.253 Y-0.024
G1 X0.304 Y-0.008
M106 S0 
G0 X1.324 Y1.449 F0
M106 S255
G1 X-0.375F300
G1  Y0.281
G1 X0.375
G1  Y-0.281
M106 S0 
G0 X-1.324 Y0.642 F0
M106 S255
G1 X-0.43 Y0.019F300
G1 X-0.336 Y0.055
G1 X-0.257 Y0.091
G1 X-0.191 Y0.127
G1 X-0.069 Y0.077
G1 X-0.049 Y0.087
G1 X-0.03 Y0.096
G1 X-0.009 Y0.105
G1 X0.021 Y0.152
G1 X0.066 Y0.132
G1 X0.106 Y0.112
G1 X0.144 Y0.09
G1 X0.182 Y0.071
G1 X0.218 Y0.054
G1 X0.276 Y0.034
G1 X0.358 Y0.011
G1 X0.427 Y-0.018
G1 X0.336 Y-0.054
G1 X0.257 Y-0.091
G1 X0.191 Y-0.127
G1 X0.07 Y-0.077
G1 X0.049 Y-0.087
G1 X0.03 Y-0.096
G1 X0.01 Y-0.106
G1 X-0.018 Y-0.138
G1 X-0.052 Y-0.122
G1 X-0.087 Y-0.107
G1 X-0.122 Y-0.09
G1 X-0.193 Y-0.088
G1 X-0.247 Y-0.062
G1 X-0.299 Y-0.037
G1 X-0.352 Y-0.013
M106 S0 
G0 X0 Y0.254 F0
M106 S255
G1 X0.303 Y0.008F300
G1 X0.248 Y0.022
G1 X0.192 Y0.036
G1 X0.137 Y0.051
G1 X0.096 Y0.061
G1 X0.068 Y0.068
G1 X0.041 Y0.075
G1 X0.014 Y0.082
G1 X-0.014 Y0.082
G1 X-0.041 Y0.075
G1 X-0.069 Y0.068
G1 X-0.096 Y0.061
G1 X-0.137 Y0.051
G1 X-0.193 Y0.036
G1 X-0.247 Y0.022
G1 X-0.302 Y0.007
G1 X-0.304 Y-0.007
G1 X-0.248 Y-0.022
G1 X-0.192 Y-0.036
G1 X-0.137 Y-0.051
G1 X-0.095 Y-0.061
G1 X-0.068 Y-0.069
G1 X-0.041 Y-0.076
G1 X-0.014 Y-0.083
G1 X0.012 Y-0.081
G1 X0.037 Y-0.072
G1 X0.06 Y-0.064
G1 X0.084 Y-0.055
G1 X0.148 Y-0.056
G1 X0.201 Y-0.04
G1 X0.253 Y-0.024
G1 X0.304 Y-0.008
M106 S0 
G0 X-6.632 Y-3.783 F0
M106 S255
G1 X-0.091 Y-0.134F300
G1 X-0.123 Y-0.094
G1 X-0.153 Y-0.056
G1 X-0.18 Y-0.018
G1 X-0.141 Y0.01
G1 X-0.129 Y0.029
G1 X-0.117 Y0.05
G1 X-0.106 Y0.069
G1 X-0.087 Y0.085
G1 X-0.062 Y0.099
G1 X-0.038 Y0.111
G1 X-0.012 Y0.125
G1 X0.012 Y0.126
G1 X0.039 Y0.112
G1 X0.063 Y0.1
G1 X0.09 Y0.086
G1 X0.107 Y0.071
G1 X0.119 Y0.05
G1 X0.13 Y0.03
G1 X0.141 Y0.01
G1 X0.175 Y-0.018
G1 X0.15 Y-0.055
G1 X0.122 Y-0.093
G1 X0.091 Y-0.13
G1 X0.106 Y0.163
G1 X0.154 Y0.119
G1 X0.197 Y0.072
G1 X0.232 Y0.025
G1 X0.165 Y-0.012
G1 X0.152 Y-0.034
G1 X0.137 Y-0.057
G1 X0.124 Y-0.08
G1 X0.103 Y-0.099
G1 X0.073 Y-0.113
G1 X0.044 Y-0.127
G1 X0.015 Y-0.142
G1 X-0.015 Y-0.142
G1 X-0.044 Y-0.127
G1 X-0.074 Y-0.113
G1 X-0.103 Y-0.098
G1 X-0.124 Y-0.08
G1 X-0.14 Y-0.057
G1 X-0.154 Y-0.035
G1 X-0.168 Y-0.011
G1 X-0.241 Y0.025
G1 X-0.198 Y0.074
G1 X-0.149 Y0.121
G1 X-0.092 Y0.163
M106 S0 
G0 X-0.558 Y-0.049 F0
M106 S255
G1 X0.173 Y0.023F300
G1 X0.138 Y0.069
G1 X0.091 Y0.105
G1 X0.03 Y0.134
G1 X-0.03 Y0.13
G1 X-0.09 Y0.104
G1 X-0.133 Y0.068
G1 X-0.161 Y0.023
G1 X-0.167 Y-0.023
G1 X-0.138 Y-0.071
G1 X-0.092 Y-0.106
G1 X-0.031 Y-0.128
G1 X0.03 Y-0.13
G1 X0.09 Y-0.105
G1 X0.133 Y-0.07
G1 X0.157 Y-0.023
M106 S0 
G0 X1.239 Y-0.08 F0
M106 S255
G1 X0.139 Y0.013F300
G1 X0.134 Y0.037
G1 X0.117 Y0.062
G1 X0.087 Y0.087
G1 X0.055 Y0.103
G1 X0.018 Y0.11
G1 X-0.01 Y0.085
G1 X-0.028 Y0.077
G1 X-0.048 Y0.069
G1 X-0.066 Y0.061
G1 X-0.173 Y0.087
G1 X-0.214 Y0.029
G1 X-0.217 Y-0.03
G1 X-0.176 Y-0.089
G1 X-0.068 Y-0.063
G1 X-0.049 Y-0.071
G1 X-0.029 Y-0.078
G1 X-0.01 Y-0.085
G1 X0.01 Y-0.084
G1 X0.029 Y-0.076
G1 X0.048 Y-0.068
G1 X0.067 Y-0.061
G1 X0.173 Y-0.086
G1 X0.211 Y-0.029
M106 S0 
G0 X-0.549 Y1.313 F0
M106 S255
G1 X-0.43 Y0.018F300
G1 X-0.336 Y0.055
G1 X-0.257 Y0.092
G1 X-0.191 Y0.127
G1 X-0.069 Y0.077
G1 X-0.049 Y0.086
G1 X-0.03 Y0.096
G1 X-0.009 Y0.105
G1 X0.021 Y0.152
G1 X0.066 Y0.133
G1 X0.106 Y0.111
G1 X0.144 Y0.09
G1 X0.182 Y0.072
G1 X0.218 Y0.053
G1 X0.276 Y0.034
G1 X0.358 Y0.012
G1 X0.427 Y-0.018
G1 X0.336 Y-0.055
G1 X0.257 Y-0.091
G1 X0.191 Y-0.127
G1 X0.07 Y-0.077
G1 X0.049 Y-0.087
G1 X0.03 Y-0.096
G1 X0.01 Y-0.106
G1 X-0.018 Y-0.137
G1 X-0.052 Y-0.123
G1 X-0.087 Y-0.106
G1 X-0.122 Y-0.091
G1 X-0.193 Y-0.087
G1 X-0.247 Y-0.062
G1 X-0.299 Y-0.038
G1 X-0.352 Y-0.012
M106 S0 
G0 X0 Y0.254 F0
M106 S255
G1 X0.303 Y0.007F300
G1 X0.248 Y0.022
G1 X0.192 Y0.036
G1 X0.137 Y0.051
G1 X0.096 Y0.061
G1 X0.068 Y0.069
G1 X0.041 Y0.075
G1 X0.014 Y0.081
G1 X-0.014 Y0.082
G1 X-0.041 Y0.075
G1 X-0.069 Y0.068
G1 X-0.096 Y0.062
G1 X-0.137 Y0.05
G1 X-0.193 Y0.037
G1 X-0.247 Y0.021
G1 X-0.302 Y0.008
G1 X-0.304 Y-0.008
G1 X-0.248 Y-0.021
G1 X-0.192 Y-0.037
G1 X-0.137 Y-0.05
G1 X-0.095 Y-0.062
G1 X-0.068 Y-0.069
G1 X-0.041 Y-0.076
G1 X-0.014 Y-0.082
G1 X0.012 Y-0.081
G1 X0.037 Y-0.073
G1 X0.06 Y-0.063
G1 X0.084 Y-0.055
G1 X0.148 Y-0.056
G1 X0.201 Y-0.04
G1 X0.253 Y-0.024
G1 X0.304 Y-0.008
M106 S0 
G0 X1.324 Y1.449 F0
M106 S255
G1 X-0.375F300
G1  Y0.281
G1 X0.375
G1  Y-0.281
M106 S0 
G0 X-1.324 Y0.642 F0
M106 S255
G1 X-0.43 Y0.019F300
G1 X-0.336 Y0.055
G1 X-0.257 Y0.091
G1 X-0.191 Y0.127
G1 X-0.069 Y0.077
G1 X-0.049 Y0.087
G1 X-0.03 Y0.096
G1 X-0.009 Y0.105
G1 X0.021 Y0.152
G1 X0.066 Y0.132
G1 X0.106 Y0.112
G1 X0.144 Y0.09
G1 X0.182 Y0.071
G1 X0.218 Y0.054
G1 X0.276 Y0.034
G1 X0.358 Y0.011
G1 X0.427 Y-0.018
G1 X0.336 Y-0.054
G1 X0.257 Y-0.091
G1 X0.191 Y-0.127
G1 X0.07 Y-0.077
G1 X0.049 Y-0.087
G1 X0.03 Y-0.096
G1 X0.01 Y-0.106
G1 X-0.018 Y-0.138
G1 X-0.052 Y-0.122
G1 X-0.087 Y-0.107
G1 X-0.122 Y-0.09
G1 X-0.193 Y-0.088
G1 X-0.247 Y-0.062
G1 X-0.299 Y-0.037
G1 X-0.352 Y-0.013
M106 S0 
G0 X0 Y0.254 F0
M106 S255
G1 X0.303 Y0.008F300
G1 X0.248 Y0.022
G1 X0.192 Y0.036
G1 X0.137 Y0.051
G1 X0.096 Y0.061
G1 X0.068 Y0.068
G1 X0.041 Y0.075
G1 X0.014 Y0.082
G1 X-0.014 Y0.082
G1 X-0.041 Y0.075
G1 X-0.069 Y0.068
G1 X-0.096 Y0.061
G1 X-0.137 Y0.051
G1 X-0.193 Y0.036
G1 X-0.247 Y0.022
G1 X-0.302 Y0.007
G1 X-0.304 Y-0.007
G1 X-0.248 Y-0.022
G1 X-0.192 Y-0.036
G1 X-0.137 Y-0.051
G1 X-0.095 Y-0.061
G1 X-0.068 Y-0.069
G1 X-0.041 Y-0.076
G1 X-0.014 Y-0.083
G1 X0.012 Y-0.081
G1 X0.037 Y-0.072
G1 X0.06 Y-0.064
G1 X0.084 Y-0.055
G1 X0.148 Y-0.056
G1 X0.201 Y-0.04
G1 X0.253 Y-0.024
G1 X0.304 Y-0.008
M106 S0 
G0 X-7.509 Y-4.147 F0
M106 S255
G1 X-0.317F300
G1  Y1.303
G1 X0.257
G1 X0.317 Y-0.191
G1 X0.408 Y-0.19
G1 X0.459 Y-0.167
G1 X0.471 Y-0.125
G1 X0.353 Y-0.06
G1 X0.385 Y-0.034
G1  Y-0.254
G1 X-0.35 Y0.025
G1 X-0.415 Y0.068
G1 X-0.441 Y0.109
G1 X-0.425 Y0.147
G1 X-0.383 Y0.172
G1 X-0.319 Y0.183
G1  Y-0.986
M106 S0 
G0 X1.009 Y1.548 F0
M106 S255
G1 X-0.43 Y0.018F300
G1 X-0.336 Y0.055
G1 X-0.257 Y0.092
G1 X-0.191 Y0.127
G1 X-0.069 Y0.077
G1 X-0.049 Y0.086
G1 X-0.03 Y0.096
G1 X-0.009 Y0.105
G1 X0.021 Y0.152
G1 X0.066 Y0.133
G1 X0.106 Y0.111
G1 X0.144 Y0.09
G1 X0.182 Y0.072
G1 X0.218 Y0.053
G1 X0.276 Y0.034
G1 X0.358 Y0.012
G1 X0.427 Y-0.018
G1 X0.336 Y-0.055
G1 X0.257 Y-0.091
G1 X0.191 Y-0.127
G1 X0.07 Y-0.077
G1 X0.049 Y-0.087
G1 X0.03 Y-0.096
G1 X0.01 Y-0.106
G1 X-0.018 Y-0.137
G1 X-0.052 Y-0.123
G1 X-0.087 Y-0.106
G1 X-0.122 Y-0.091
G1 X-0.193 Y-0.087
G1 X-0.247 Y-0.062
G1 X-0.299 Y-0.038
G1 X-0.352 Y-0.012
M106 S0 
G0 X0 Y0.254 F0
M106 S255
G1 X0.303 Y0.007F300
G1 X0.248 Y0.022
G1 X0.192 Y0.036
G1 X0.137 Y0.051
G1 X0.096 Y0.061
G1 X0.068 Y0.069
G1 X0.041 Y0.075
G1 X0.014 Y0.081
G1 X-0.014 Y0.082
G1 X-0.041 Y0.075
G1 X-0.069 Y0.068
G1 X-0.096 Y0.062
G1 X-0.137 Y0.05
G1 X-0.193 Y0.037
G1 X-0.247 Y0.021
G1 X-0.302 Y0.008
G1 X-0.304 Y-0.008
G1 X-0.248 Y-0.021
G1 X-0.192 Y-0.037
G1 X-0.137 Y-0.05
G1 X-0.095 Y-0.062
G1 X-0.068 Y-0.069
G1 X-0.041 Y-0.076
G1 X-0.014 Y-0.082
G1 X0.012 Y-0.081
G1 X0.037 Y-0.073
G1 X0.06 Y-0.063
G1 X0.084 Y-0.055
G1 X0.148 Y-0.056
G1 X0.201 Y-0.04
G1 X0.253 Y-0.024
G1 X0.304 Y-0.008
M106 S0 
G0 X1.324 Y1.449 F0
M106 S255
G1 X-0.375F300
G1  Y0.281
G1 X0.375
G1  Y-0.281
M106 S0 
G0 X-1.324 Y0.642 F0
M106 S255
G1 X-0.43 Y0.019F300
G1 X-0.336 Y0.055
G1 X-0.257 Y0.091
G1 X-0.191 Y0.127
G1 X-0.069 Y0.077
G1 X-0.049 Y0.087
G1 X-0.03 Y0.096
G1 X-0.009 Y0.105
G1 X0.021 Y0.152
G1 X0.066 Y0.132
G1 X0.106 Y0.112
G1 X0.144 Y0.09
G1 X0.182 Y0.071
G1 X0.218 Y0.054
G1 X0.276 Y0.034
G1 X0.358 Y0.011
G1 X0.427 Y-0.018
G1 X0.336 Y-0.054
G1 X0.257 Y-0.091
G1 X0.191 Y-0.127
G1 X0.07 Y-0.077
G1 X0.049 Y-0.087
G1 X0.03 Y-0.096
G1 X0.01 Y-0.106
G1 X-0.018 Y-0.138
G1 X-0.052 Y-0.122
G1 X-0.087 Y-0.107
G1 X-0.122 Y-0.09
G1 X-0.193 Y-0.088
G1 X-0.247 Y-0.062
G1 X-0.299 Y-0.037
G1 X-0.352 Y-0.013
M106 S0 
G0 X0 Y0.254 F0
M106 S255
G1 X0.303 Y0.008F300
G1 X0.248 Y0.022
G1 X0.192 Y0.036
G1 X0.137 Y0.051
G1 X0.096 Y0.061
G1 X0.068 Y0.068
G1 X0.041 Y0.075
G1 X0.014 Y0.082
G1 X-0.014 Y0.082
G1 X-0.041 Y0.075
G1 X-0.069 Y0.068
G1 X-0.096 Y0.061
G1 X-0.137 Y0.051
G1 X-0.193 Y0.036
G1 X-0.247 Y0.022
G1 X-0.302 Y0.007
G1 X-0.304 Y-0.007
G1 X-0.248 Y-0.022
G1 X-0.192 Y-0.036
G1 X-0.137 Y-0.051
G1 X-0.095 Y-0.061
G1 X-0.068 Y-0.069
G1 X-0.041 Y-0.076
G1 X-0.014 Y-0.083
G1 X0.012 Y-0.081
G1 X0.037 Y-0.072
G1 X0.06 Y-0.064
G1 X0.084 Y-0.055
G1 X0.148 Y-0.056
G1 X0.201 Y-0.04
G1 X0.253 Y-0.024
G1 X0.304 Y-0.008
M106 S0 
G0 X-7.203 Y-2.881 F0
M106 S255
G1 X0.026 Y-0.245F300
G1 X-0.168 Y-0.04
G1 X-0.114 Y-0.054
G1 X-0.106 Y-0.112
G1 X-0.035 Y-0.135
G1 X0.022 Y-0.111
G1 X0.066 Y-0.096
G1 X0.139 Y-0.105
G1 X0.192 Y-0.079
G1 X0.264 Y-0.052
G1 X0.357 Y-0.018
G1 X-0.158 Y0.099
G1 X-0.111 Y0.119
G1 X-0.066 Y0.132
G1 X-0.022 Y0.138
G1 X0.015 Y0.119
G1 X0.045 Y0.11
G1 X0.076 Y0.101
G1 X0.106 Y0.091
G1 X0.13 Y0.076
G1 X0.148 Y0.055
G1 X0.166 Y0.032
G1 X0.183 Y0.011
G1 X0.244 Y-0.02
G1 X0.226 Y-0.062
G1 X0.192 Y-0.097
G1 X0.14 Y-0.127
G1 X0.087 Y-0.153
G1 X0.029 Y-0.171
G1 X-0.019 Y-0.148
G1 X-0.057 Y-0.133
G1 X-0.095 Y-0.119
G1 X-0.132 Y-0.104
G1 X-0.176 Y-0.086
G1 X-0.226 Y-0.061
G1 X-0.274 Y-0.036
G1 X-0.323 Y-0.012
G1 X-0.363 Y0.013
G1 X-0.309 Y0.041
G1 X-0.257 Y0.067
G1 X-0.203 Y0.094
G1 X-0.134 Y0.103
G1 X-0.096 Y0.118
G1 X-0.058 Y0.135
G1 X-0.019 Y0.151
G1 X0.011 Y0.113
G1 X0.033 Y0.103
G1 X0.056 Y0.092
G1 X0.077 Y0.081
G1 X0.098 Y0.069
G1 X0.114 Y0.053
G1 X0.131 Y0.038
G1 X0.148 Y0.022
M106 S0 
G0 X1.157 Y-1.009 F0
M106 S255
G1 X0.167 Y0.014F300
G1 X0.159 Y0.04
G1 X0.137 Y0.065
G1 X0.1 Y0.087
G1 X0.061 Y0.1
G1 X0.021 Y0.105
G1 X-0.011 Y0.075
G1 X-0.031 Y0.07
G1 X-0.053 Y0.065
G1 X-0.074 Y0.059
G1 X-0.198 Y0.084
G1 X-0.259 Y0.028
G1 X-0.249 Y-0.027
G1 X-0.19 Y-0.084
G1 X-0.07 Y-0.059
G1 X-0.05 Y-0.067
G1 X-0.03 Y-0.073
G1 X-0.01 Y-0.081
G1 X0.01 Y-0.081
G1 X0.03 Y-0.074
G1 X0.05 Y-0.068
G1 X0.07 Y-0.061
G1 X0.185 Y-0.088
G1 X0.235 Y-0.029
M106 S0 
G0 X-0.454 Y1.291 F0
M106 S255
G1 X-0.43 Y0.018F300
G1 X-0.336 Y0.055
G1 X-0.257 Y0.092
G1 X-0.191 Y0.127
G1 X-0.069 Y0.077
G1 X-0.049 Y0.086
G1 X-0.03 Y0.096
G1 X-0.009 Y0.105
G1 X0.021 Y0.152
G1 X0.066 Y0.133
G1 X0.106 Y0.111
G1 X0.144 Y0.09
G1 X0.182 Y0.072
G1 X0.218 Y0.053
G1 X0.276 Y0.034
G1 X0.358 Y0.012
G1 X0.427 Y-0.018
G1 X0.336 Y-0.055
G1 X0.257 Y-0.091
G1 X0.191 Y-0.127
G1 X0.07 Y-0.077
G1 X0.049 Y-0.087
G1 X0.03 Y-0.096
G1 X0.01 Y-0.106
G1 X-0.018 Y-0.137
G1 X-0.052 Y-0.123
G1 X-0.087 Y-0.106
G1 X-0.122 Y-0.091
G1 X-0.193 Y-0.087
G1 X-0.247 Y-0.062
G1 X-0.299 Y-0.038
G1 X-0.352 Y-0.012
M106 S0 
G0 X0 Y0.254 F0
M106 S255
G1 X0.303 Y0.007F300
G1 X0.248 Y0.022
G1 X0.192 Y0.036
G1 X0.137 Y0.051
G1 X0.096 Y0.061
G1 X0.068 Y0.069
G1 X0.041 Y0.075
G1 X0.014 Y0.081
G1 X-0.014 Y0.082
G1 X-0.041 Y0.075
G1 X-0.069 Y0.068
G1 X-0.096 Y0.062
G1 X-0.137 Y0.05
G1 X-0.193 Y0.037
G1 X-0.247 Y0.021
G1 X-0.302 Y0.008
G1 X-0.304 Y-0.008
G1 X-0.248 Y-0.021
G1 X-0.192 Y-0.037
G1 X-0.137 Y-0.05
G1 X-0.095 Y-0.062
G1 X-0.068 Y-0.069
G1 X-0.041 Y-0.076
G1 X-0.014 Y-0.082
G1 X0.012 Y-0.081
G1 X0.037 Y-0.073
G1 X0.06 Y-0.063
G1 X0.084 Y-0.055
G1 X0.148 Y-0.056
G1 X0.201 Y-0.04
G1 X0.253 Y-0.024
G1 X0.304 Y-0.008
M106 S0 
G0 X1.324 Y1.449 F0
M106 S255
G1 X-0.375F300
G1  Y0.281
G1 X0.375
G1  Y-0.281
M106 S0 
G0 X-1.324 Y0.642 F0
M106 S255
G1 X-0.43 Y0.019F300
G1 X-0.336 Y0.055
G1 X-0.257 Y0.091
G1 X-0.191 Y0.127
G1 X-0.069 Y0.077
G1 X-0.049 Y0.087
G1 X-0.03 Y0.096
G1 X-0.009 Y0.105
G1 X0.021 Y0.152
G1 X0.066 Y0.132
G1 X0.106 Y0.112
G1 X0.144 Y0.09
G1 X0.182 Y0.071
G1 X0.218 Y0.054
G1 X0.276 Y0.034
G1 X0.358 Y0.011
G1 X0.427 Y-0.018
G1 X0.336 Y-0.054
G1 X0.257 Y-0.091
G1 X0.191 Y-0.127
G1 X0.07 Y-0.077
G1 X0.049 Y-0.087
G1 X0.03 Y-0.096
G1 X0.01 Y-0.106
G1 X-0.018 Y-0.138
G1 X-0.052 Y-0.122
G1 X-0.087 Y-0.107
G1 X-0.122 Y-0.09
G1 X-0.193 Y-0.088
G1 X-0.247 Y-0.062
G1 X-0.299 Y-0.037
G1 X-0.352 Y-0.013
M106 S0 
G0 X0 Y0.254 F0
M106 S255
G1 X0.303 Y0.008F300
G1 X0.248 Y0.022
G1 X0.192 Y0.036
G1 X0.137 Y0.051
G1 X0.096 Y0.061
G1 X0.068 Y0.068
G1 X0.041 Y0.075
G1 X0.014 Y0.082
G1 X-0.014 Y0.082
G1 X-0.041 Y0.075
G1 X-0.069 Y0.068
G1 X-0.096 Y0.061
G1 X-0.137 Y0.051
G1 X-0.193 Y0.036
G1 X-0.247 Y0.022
G1 X-0.302 Y0.007
G1 X-0.304 Y-0.007
G1 X-0.248 Y-0.022
G1 X-0.192 Y-0.036
G1 X-0.137 Y-0.051
G1 X-0.095 Y-0.061
G1 X-0.068 Y-0.069
G1 X-0.041 Y-0.076
G1 X-0.014 Y-0.083
G1 X0.012 Y-0.081
G1 X0.037 Y-0.072
G1 X0.06 Y-0.064
G1 X0.084 Y-0.055
G1 X0.148 Y-0.056
G1 X0.201 Y-0.04
G1 X0.253 Y-0.024
G1 X0.304 Y-0.008
M106 S0 
G0 X-5.879 Y-4.163 F0
M106 S255
G1 X-0.029 Y0.259F300
G1 X0.221 Y0.048
G1 X0.158 Y0.086
G1 X0.096 Y0.116
G1 X0.032 Y0.137
G1 X-0.011 Y0.086
G1 X-0.034 Y0.079
G1 X-0.056 Y0.072
G1 X-0.079 Y0.066
G1 X-0.208 Y0.092
G1 X-0.268 Y0.031
G1 X-0.252 Y-0.029
G1 X-0.193 Y-0.09
G1 X-0.071 Y-0.064
G1 X-0.051 Y-0.073
G1 X-0.031 Y-0.082
G1 X-0.01 Y-0.092
G1 X0.018 Y-0.113
G1 X0.055 Y-0.102
G1 X0.083 Y-0.086
G1 X0.104 Y-0.065
G1 X-0.04 Y-0.232
G1 X-1.379 Y0.195
G1  Y1.001
G1 X0.315
G1  Y-0.804
G1 X0.722 Y-0.108
G1 X-0.074 Y0.092
G1 X-0.053 Y0.094
G1 X-0.031 Y0.096
G1 X-0.011 Y0.098
G1 X0.015 Y0.127
G1 X0.046 Y0.116
G1 X0.076 Y0.106
G1 X0.107 Y0.096
G1 X0.13 Y0.08
G1 X0.148 Y0.056
G1 X0.165 Y0.034
G1 X0.183 Y0.012
G1 X0.176 Y-0.01
G1 X0.164 Y-0.03
G1 X0.151 Y-0.05
G1 X0.139 Y-0.07
G1 X0.142 Y-0.105
G1 X0.102 Y-0.124
G1 X0.061 Y-0.141
G1 X0.021 Y-0.159
G1 X-0.013 Y-0.131
G1 X-0.039 Y-0.118
G1 X-0.064 Y-0.106
G1 X-0.089 Y-0.093
G1 X-0.111 Y-0.077
G1 X-0.128 Y-0.059
G1 X-0.144 Y-0.041
G1 X-0.161 Y-0.021
M106 S0 
G0 X-0.621 Y1.564 F0
M106 S255
G1 X-0.43 Y0.018F300
G1 X-0.336 Y0.055
G1 X-0.257 Y0.092
G1 X-0.191 Y0.127
G1 X-0.069 Y0.077
G1 X-0.049 Y0.086
G1 X-0.03 Y0.096
G1 X-0.009 Y0.105
G1 X0.021 Y0.152
G1 X0.066 Y0.133
G1 X0.106 Y0.111
G1 X0.144 Y0.09
G1 X0.182 Y0.072
G1 X0.218 Y0.053
G1 X0.276 Y0.034
G1 X0.358 Y0.012
G1 X0.427 Y-0.018
G1 X0.336 Y-0.055
G1 X0.257 Y-0.091
G1 X0.191 Y-0.127
G1 X0.07 Y-0.077
G1 X0.049 Y-0.087
G1 X0.03 Y-0.096
G1 X0.01 Y-0.106
G1 X-0.018 Y-0.137
G1 X-0.052 Y-0.123
G1 X-0.087 Y-0.106
G1 X-0.122 Y-0.091
G1 X-0.193 Y-0.087
G1 X-0.247 Y-0.062
G1 X-0.299 Y-0.038
G1 X-0.352 Y-0.012
M106 S0 
G0 X0 Y0.254 F0
M106 S255
G1 X0.303 Y0.007F300
G1 X0.248 Y0.022
G1 X0.192 Y0.036
G1 X0.137 Y0.051
G1 X0.096 Y0.061
G1 X0.068 Y0.069
G1 X0.041 Y0.075
G1 X0.014 Y0.081
G1 X-0.014 Y0.082
G1 X-0.041 Y0.075
G1 X-0.069 Y0.068
G1 X-0.096 Y0.062
G1 X-0.137 Y0.05
G1 X-0.193 Y0.037
G1 X-0.247 Y0.021
G1 X-0.302 Y0.008
G1 X-0.304 Y-0.008
G1 X-0.248 Y-0.021
G1 X-0.192 Y-0.037
G1 X-0.137 Y-0.05
G1 X-0.095 Y-0.062
G1 X-0.068 Y-0.069
G1 X-0.041 Y-0.076
G1 X-0.014 Y-0.082
G1 X0.012 Y-0.081
G1 X0.037 Y-0.073
G1 X0.06 Y-0.063
G1 X0.084 Y-0.055
G1 X0.148 Y-0.056
G1 X0.201 Y-0.04
G1 X0.253 Y-0.024
G1 X0.304 Y-0.008
M106 S0 
G0 X1.324 Y1.449 F0
M106 S255
G1 X-0.375F300
G1  Y0.281
G1 X0.375
G1  Y-0.281
M106 S0 
G0 X-1.324 Y0.642 F0
M106 S255
G1 X-0.43 Y0.019F300
G1 X-0.336 Y0.055
G1 X-0.257 Y0.091
G1 X-0.191 Y0.127
G1 X-0.069 Y0.077
G1 X-0.049 Y0.087
G1 X-0.03 Y0.096
G1 X-0.009 Y0.105
G1 X0.021 Y0.152
G1 X0.066 Y0.132
G1 X0.106 Y0.112
G1 X0.144 Y0.09
G1 X0.182 Y0.071
G1 X0.218 Y0.054
G1 X0.276 Y0.034
G1 X0.358 Y0.011
G1 X0.427 Y-0.018
G1 X0.336 Y-0.054
G1 X0.257 Y-0.091
G1 X0.191 Y-0.127
G1 X0.07 Y-0.077
G1 X0.049 Y-0.087
G1 X0.03 Y-0.096
G1 X0.01 Y-0.106
G1 X-0.018 Y-0.138
G1 X-0.052 Y-0.122
G1 X-0.087 Y-0.107
G1 X-0.122 Y-0.09
G1 X-0.193 Y-0.088
G1 X-0.247 Y-0.062
G1 X-0.299 Y-0.037
G1 X-0.352 Y-0.013
M106 S0 
G0 X0 Y0.254 F0
M106 S255
G1 X0.303 Y0.008F300
G1 X0.248 Y0.022
G1 X0.192 Y0.036
G1 X0.137 Y0.051
G1 X0.096 Y0.061
G1 X0.068 Y0.068
G1 X0.041 Y0.075
G1 X0.014 Y0.082
G1 X-0.014 Y0.082
G1 X-0.041 Y0.075
G1 X-0.069 Y0.068
G1 X-0.096 Y0.061
G1 X-0.137 Y0.051
G1 X-0.193 Y0.036
G1 X-0.247 Y0.022
G1 X-0.302 Y0.007
G1 X-0.304 Y-0.007
G1 X-0.248 Y-0.022
G1 X-0.192 Y-0.036
G1 X-0.137 Y-0.051
G1 X-0.095 Y-0.061
G1 X-0.068 Y-0.069
G1 X-0.041 Y-0.076
G1 X-0.014 Y-0.083
G1 X0.012 Y-0.081
G1 X0.037 Y-0.072
G1 X0.06 Y-0.064
G1 X0.084 Y-0.055
G1 X0.148 Y-0.056
G1 X0.201 Y-0.04
G1 X0.253 Y-0.024
G1 X0.304 Y-0.008
M106 S0 
G0 X-5.176 Y-3.371 F0
M106 S255
G1 X-0.643F300
G1  Y-0.873
G1 X-0.302
G1 X-1.739 Y0.918
G1  Y0.202
G1 X1.739
G1  Y0.272
G1 X0.302
G1  Y-0.272
G1 X0.643
G1  Y-0.247
M106 S0 
G0 X-0.945 Y0 F0
M106 S255
G1 X-1.21F300
G1 X1.21 Y-0.63
G1  Y0.63
M106 S0 
G0 X-0.379 Y0.772 F0
M106 S255
G1 X-0.43 Y0.018F300
G1 X-0.336 Y0.055
G1 X-0.257 Y0.092
G1 X-0.191 Y0.127
G1 X-0.069 Y0.077
G1 X-0.049 Y0.086
G1 X-0.03 Y0.096
G1 X-0.009 Y0.105
G1 X0.021 Y0.152
G1 X0.066 Y0.133
G1 X0.106 Y0.111
G1 X0.144 Y0.09
G1 X0.182 Y0.072
G1 X0.218 Y0.053
G1 X0.276 Y0.034
G1 X0.358 Y0.012
G1 X0.427 Y-0.018
G1 X0.336 Y-0.055
G1 X0.257 Y-0.091
G1 X0.191 Y-0.127
G1 X0.07 Y-0.077
G1 X0.049 Y-0.087
G1 X0.03 Y-0.096
G1 X0.01 Y-0.106
G1 X-0.018 Y-0.137
G1 X-0.052 Y-0.123
G1 X-0.087 Y-0.106
G1 X-0.122 Y-0.091
G1 X-0.193 Y-0.087
G1 X-0.247 Y-0.062
G1 X-0.299 Y-0.038
G1 X-0.352 Y-0.012
M106 S0 
G0 X0 Y0.254 F0
M106 S255
G1 X0.303 Y0.007F300
G1 X0.248 Y0.022
G1 X0.192 Y0.036
G1 X0.137 Y0.051
G1 X0.096 Y0.061
G1 X0.068 Y0.069
G1 X0.041 Y0.075
G1 X0.014 Y0.081
G1 X-0.014 Y0.082
G1 X-0.041 Y0.075
G1 X-0.069 Y0.068
G1 X-0.096 Y0.062
G1 X-0.137 Y0.05
G1 X-0.193 Y0.037
G1 X-0.247 Y0.021
G1 X-0.302 Y0.008
G1 X-0.304 Y-0.008
G1 X-0.248 Y-0.021
G1 X-0.192 Y-0.037
G1 X-0.137 Y-0.05
G1 X-0.095 Y-0.062
G1 X-0.068 Y-0.069
G1 X-0.041 Y-0.076
G1 X-0.014 Y-0.082
G1 X0.012 Y-0.081
G1 X0.037 Y-0.073
G1 X0.06 Y-0.063
G1 X0.084 Y-0.055
G1 X0.148 Y-0.056
G1 X0.201 Y-0.04
G1 X0.253 Y-0.024
G1 X0.304 Y-0.008
M106 S0 
G0 X1.324 Y1.449 F0
M106 S255
G1 X-0.375F300
G1  Y0.281
G1 X0.375
G1  Y-0.281
M106 S0 
G0 X-1.324 Y0.642 F0
M106 S255
G1 X-0.43 Y0.019F300
G1 X-0.336 Y0.055
G1 X-0.257 Y0.091
G1 X-0.191 Y0.127
G1 X-0.069 Y0.077
G1 X-0.049 Y0.087
G1 X-0.03 Y0.096
G1 X-0.009 Y0.105
G1 X0.021 Y0.152
G1 X0.066 Y0.132
G1 X0.106 Y0.112
G1 X0.144 Y0.09
G1 X0.182 Y0.071
G1 X0.218 Y0.054
G1 X0.276 Y0.034
G1 X0.358 Y0.011
G1 X0.427 Y-0.018
G1 X0.336 Y-0.054
G1 X0.257 Y-0.091
G1 X0.191 Y-0.127
G1 X0.07 Y-0.077
G1 X0.049 Y-0.087
G1 X0.03 Y-0.096
G1 X0.01 Y-0.106
G1 X-0.018 Y-0.138
G1 X-0.052 Y-0.122
G1 X-0.087 Y-0.107
G1 X-0.122 Y-0.09
G1 X-0.193 Y-0.088
G1 X-0.247 Y-0.062
G1 X-0.299 Y-0.037
G1 X-0.352 Y-0.013
M106 S0 
G0 X0 Y0.254 F0
M106 S255
G1 X0.303 Y0.008F300
G1 X0.248 Y0.022
G1 X0.192 Y0.036
G1 X0.137 Y0.051
G1 X0.096 Y0.061
G1 X0.068 Y0.068
G1 X0.041 Y0.075
G1 X0.014 Y0.082
G1 X-0.014 Y0.082
G1 X-0.041 Y0.075
G1 X-0.069 Y0.068
G1 X-0.096 Y0.061
G1 X-0.137 Y0.051
G1 X-0.193 Y0.036
G1 X-0.247 Y0.022
G1 X-0.302 Y0.007
G1 X-0.304 Y-0.007
G1 X-0.248 Y-0.022
G1 X-0.192 Y-0.036
G1 X-0.137 Y-0.051
G1 X-0.095 Y-0.061
G1 X-0.068 Y-0.069
G1 X-0.041 Y-0.076
G1 X-0.014 Y-0.083
G1 X0.012 Y-0.081
G1 X0.037 Y-0.072
G1 X0.06 Y-0.064
G1 X0.084 Y-0.055
G1 X0.148 Y-0.056
G1 X0.201 Y-0.04
G1 X0.253 Y-0.024
G1 X0.304 Y-0.008
M106 S0 
G0 X-5.885 Y-4.162 F0
M106 S255
G1 X-0.044 Y0.247F300
G1 X0.241 Y0.058
G1 X0.163 Y0.087
G1 X0.093 Y0.114
G1 X0.031 Y0.135
G1 X-0.01 Y0.084
G1 X-0.031 Y0.077
G1 X-0.05 Y0.07
G1 X-0.07 Y0.064
G1 X-0.181 Y0.09
G1 X-0.219 Y0.03
G1 X-0.207 Y-0.028
G1 X-0.167 Y-0.083
G1 X-0.065 Y-0.06
G1 X-0.046 Y-0.066
G1 X-0.027 Y-0.075
G1 X-0.009 Y-0.082
G1 X0.009 Y-0.079
G1 X0.027 Y-0.095
G1 X-0.289 Y0.027
G1  Y0.04
G1 X-0.024 Y0.15
G1 X-0.082 Y0.134
G1 X-0.063 Y0.055
G1 X-0.077 Y0.04
G1 X-0.092 Y0.024
G1 X-0.107 Y0.007
G1 X-0.166 Y-0.023
G1 X-0.134 Y-0.069
G1 X-0.09 Y-0.105
G1 X-0.029 Y-0.132
G1 X0.03 Y-0.132
G1 X0.09 Y-0.108
G1 X0.152 Y-0.079
G1 X0.211 Y-0.045
G1 X-0.059 Y-0.247
G1 X-0.156 Y0.03
G1 X-0.138 Y0.044
G1 X-0.119 Y0.059
G1 X-0.1 Y0.073
G1 X-0.08 Y0.085
G1 X-0.057 Y0.095
G1 X-0.034 Y0.105
G1 X-0.011 Y0.114
G1 X0.023 Y0.159
G1 X0.071 Y0.145
G1 X0.111 Y0.122
G1 X0.146 Y0.09
G1 X0.168 Y0.055
G1 X0.178 Y0.019
G1 X0.166 Y-0.018
G1 X0.151 Y-0.053
G1 X0.128 Y-0.086
G1 X0.099 Y-0.121
G1 X0.085 Y0.159
G1 X0.143 Y0.119
G1 X0.195 Y0.074
G1 X0.238 Y0.024
G1 X0.169 Y-0.012
G1 X0.156 Y-0.036
G1 X0.142 Y-0.06
G1 X0.129 Y-0.084
G1 X0.107 Y-0.102
G1 X0.076 Y-0.116
G1 X0.046 Y-0.127
G1 X0.016 Y-0.141
G1 X-0.014 Y-0.127
G1 X-0.039 Y-0.116
G1 X-0.066 Y-0.104
G1 X-0.092 Y-0.093
G1 X-0.113 Y-0.078
G1 X-0.129 Y-0.06
G1 X-0.144 Y-0.04
G1 X-0.16 Y-0.022
M106 S0 
G0 X-0.615 Y1.563 F0
M106 S255
G1 X-0.43 Y0.018F300
G1 X-0.336 Y0.055
G1 X-0.257 Y0.092
G1 X-0.191 Y0.127
G1 X-0.069 Y0.077
G1 X-0.049 Y0.086
G1 X-0.03 Y0.096
G1 X-0.009 Y0.105
G1 X0.021 Y0.152
G1 X0.066 Y0.133
G1 X0.106 Y0.111
G1 X0.144 Y0.09
G1 X0.182 Y0.072
G1 X0.218 Y0.053
G1 X0.276 Y0.034
G1 X0.358 Y0.012
G1 X0.427 Y-0.018
G1 X0.336 Y-0.055
G1 X0.257 Y-0.091
G1 X0.191 Y-0.127
G1 X0.07 Y-0.077
G1 X0.049 Y-0.087
G1 X0.03 Y-0.096
G1 X0.01 Y-0.106
G1 X-0.018 Y-0.137
G1 X-0.052 Y-0.123
G1 X-0.087 Y-0.106
G1 X-0.122 Y-0.091
G1 X-0.193 Y-0.087
G1 X-0.247 Y-0.062
G1 X-0.299 Y-0.038
G1 X-0.352 Y-0.012
M106 S0 
G0 X0 Y0.254 F0
M106 S255
G1 X0.303 Y0.007F300
G1 X0.248 Y0.022
G1 X0.192 Y0.036
G1 X0.137 Y0.051
G1 X0.096 Y0.061
G1 X0.068 Y0.069
G1 X0.041 Y0.075
G1 X0.014 Y0.081
G1 X-0.014 Y0.082
G1 X-0.041 Y0.075
G1 X-0.069 Y0.068
G1 X-0.096 Y0.062
G1 X-0.137 Y0.05
G1 X-0.193 Y0.037
G1 X-0.247 Y0.021
G1 X-0.302 Y0.008
G1 X-0.304 Y-0.008
G1 X-0.248 Y-0.021
G1 X-0.192 Y-0.037
G1 X-0.137 Y-0.05
G1 X-0.095 Y-0.062
G1 X-0.068 Y-0.069
G1 X-0.041 Y-0.076
G1 X-0.014 Y-0.082
G1 X0.012 Y-0.081
G1 X0.037 Y-0.073
G1 X0.06 Y-0.063
G1 X0.084 Y-0.055
G1 X0.148 Y-0.056
G1 X0.201 Y-0.04
G1 X0.253 Y-0.024
G1 X0.304 Y-0.008
M106 S0 
G0 X1.324 Y1.449 F0
M106 S255
G1 X-0.375F300
G1  Y0.281
G1 X0.375
G1  Y-0.281
M106 S0 
G0 X-1.324 Y0.642 F0
M106 S255
G1 X-0.43 Y0.019F300
G1 X-0.336 Y0.055
G1 X-0.257 Y0.091
G1 X-0.191 Y0.127
G1 X-0.069 Y0.077
G1 X-0.049 Y0.087
G1 X-0.03 Y0.096
G1 X-0.009 Y0.105
G1 X0.021 Y0.152
G1 X0.066 Y0.132
G1 X0.106 Y0.112
G1 X0.144 Y0.09
G1 X0.182 Y0.071
G1 X0.218 Y0.054
G1 X0.276 Y0.034
G1 X0.358 Y0.011
G1 X0.427 Y-0.018
G1 X0.336 Y-0.054
G1 X0.257 Y-0.091
G1 X0.191 Y-0.127
G1 X0.07 Y-0.077
G1 X0.049 Y-0.087
G1 X0.03 Y-0.096
G1 X0.01 Y-0.106
G1 X-0.018 Y-0.138
G1 X-0.052 Y-0.122
G1 X-0.087 Y-0.107
G1 X-0.122 Y-0.09
G1 X-0.193 Y-0.088
G1 X-0.247 Y-0.062
G1 X-0.299 Y-0.037
G1 X-0.352 Y-0.013
M106 S0 
G0 X0 Y0.254 F0
M106 S255
G1 X0.303 Y0.008F300
G1 X0.248 Y0.022
G1 X0.192 Y0.036
G1 X0.137 Y0.051
G1 X0.096 Y0.061
G1 X0.068 Y0.068
G1 X0.041 Y0.075
G1 X0.014 Y0.082
G1 X-0.014 Y0.082
G1 X-0.041 Y0.075
G1 X-0.069 Y0.068
G1 X-0.096 Y0.061
G1 X-0.137 Y0.051
G1 X-0.193 Y0.036
G1 X-0.247 Y0.022
G1 X-0.302 Y0.007
G1 X-0.304 Y-0.007
G1 X-0.248 Y-0.022
G1 X-0.192 Y-0.036
G1 X-0.137 Y-0.051
G1 X-0.095 Y-0.061
G1 X-0.068 Y-0.069
G1 X-0.041 Y-0.076
G1 X-0.014 Y-0.083
G1 X0.012 Y-0.081
G1 X0.037 Y-0.072
G1 X0.06 Y-0.064
G1 X0.084 Y-0.055
G1 X0.148 Y-0.056
G1 X0.201 Y-0.04
G1 X0.253 Y-0.024
G1 X0.304 Y-0.008
M106 S0 
G0 X-5.493 Y-2.864 F0
M106 S255
G1 X0.317F300
G1  Y-1.331
G1 X-0.117 Y0.006
G1 X-0.112 Y0.023
G1 X-0.18 Y0.066
G1 X-0.177 Y0.097
G1 X-0.19 Y0.136
G1 X-0.216 Y0.187
G1 X-0.171 Y0.151
G1 X-0.151 Y0.124
G1 X-0.133 Y0.098
G1 X-0.114 Y0.071
G1 X-0.204 Y0.086
G1 X-0.192 Y0.029
G1 X-0.181 Y-0.026
G1 X-0.15 Y-0.079
G1 X-0.101 Y-0.121
G1 X-0.034 Y-0.153
G1 X0.009 Y-0.085
G1 X0.027 Y-0.076
G1 X0.045 Y-0.067
G1 X0.062 Y-0.058
G1 X0.171 Y-0.08
G1 X0.225 Y-0.028
G1 X-0.035 Y-0.254
G1 X-0.178 Y0.022
G1 X-0.156 Y0.04
G1 X-0.133 Y0.058
G1 X-0.111 Y0.076
G1 X-0.087 Y0.093
G1 X-0.062 Y0.107
G1 X-0.037 Y0.121
G1 X-0.012 Y0.136
G1 X0.013 Y0.138
G1 X0.04 Y0.122
G1 X0.067 Y0.107
G1 X0.094 Y0.092
G1 X0.113 Y0.074
G1 X0.127 Y0.053
G1 X0.139 Y0.032
G1 X0.152 Y0.01
G1 X0.16 Y-0.012
G1 X0.157 Y-0.037
G1 X0.159 Y-0.066
G1 X0.168 Y-0.098
G1 X0.205 Y-0.153
G1 X0.268 Y-0.229
G1 X0.209 Y-0.182
G1 X0.074 Y-0.062
G1 X0.055 Y-0.041
G1 X0.089 Y-0.058
G1 X0.089 Y-0.047
G1  Y0.988
M106 S0 
G0 X-1.007 Y0.265 F0
M106 S255
G1 X-0.43 Y0.018F300
G1 X-0.336 Y0.055
G1 X-0.257 Y0.092
G1 X-0.191 Y0.127
G1 X-0.069 Y0.077
G1 X-0.049 Y0.086
G1 X-0.03 Y0.096
G1 X-0.009 Y0.105
G1 X0.021 Y0.152
G1 X0.066 Y0.133
G1 X0.106 Y0.111
G1 X0.144 Y0.09
G1 X0.182 Y0.072
G1 X0.218 Y0.053
G1 X0.276 Y0.034
G1 X0.358 Y0.012
G1 X0.427 Y-0.018
G1 X0.336 Y-0.055
